;Generated with Cura_SteamEngine 14.12
; Default start code
G28 ; Home extruder
G1 Z15 F100
M107 ; Turn off fan
G90 ; Absolute positioning
M82 ; Extruder in absolute mode
; Activate all used extruder
M104 T0 S190
G92 E0 ; Reset extruder position
; Wait for all used extruders to reach temperature
M109 T0 S190
;Layer count: 323
;LAYER:0
M107
G0 F9000 X0.633 Y-9.551 Z0.300
;TYPE:SKIRT
G1 F1800 X1.258 Y-9.531 E0.02808
G1 X2.523 Y-9.391 E0.08522
G1 X3.717 Y-9.165 E0.13979
G1 X4.802 Y-8.906 E0.18987
G1 X5.849 Y-8.629 E0.23850
G1 X6.769 Y-8.353 E0.28163
G1 X7.630 Y-8.062 E0.32244
G1 X8.324 Y-7.754 E0.35653
G1 X11.502 Y-6.072 E0.51798
G1 X11.473 Y-5.965 E0.52296
G1 X11.590 Y-5.895 E0.52908
G1 X12.247 Y-5.293 E0.56909
G1 X12.669 Y-4.900 E0.59499
G1 X13.241 Y-4.341 E0.63090
G1 X14.035 Y-3.297 E0.68979
G1 X14.603 Y-2.491 E0.73406
G1 X15.130 Y-1.237 E0.79514
G1 X15.413 Y-0.568 E0.82776
G1 X15.633 Y0.885 E0.89374
G1 X15.727 Y1.564 E0.92452
G1 X15.535 Y2.854 E0.98308
G1 X15.413 Y3.653 E1.01937
G1 X14.853 Y4.989 E1.08442
G1 X14.601 Y5.585 E1.11347
G1 X14.036 Y6.386 E1.15749
G1 X13.507 Y7.082 E1.19674
G1 X12.982 Y7.698 E1.23308
G1 X12.247 Y8.384 E1.27822
G1 X11.578 Y8.995 E1.31891
G1 X11.473 Y9.057 E1.32438
G1 X11.503 Y9.168 E1.32954
G1 X8.322 Y10.844 E1.49099
G1 X7.648 Y11.144 E1.52411
G1 X6.926 Y11.395 E1.55843
G1 X6.113 Y11.640 E1.59656
G1 X5.076 Y11.924 E1.64484
G1 X4.052 Y12.175 E1.69218
G1 X3.047 Y12.382 E1.73825
G1 X2.524 Y12.479 E1.76213
G1 X1.838 Y12.557 E1.79314
G1 X1.259 Y12.619 E1.81928
G1 X0.001 Y12.666 E1.87581
G1 X-0.620 Y12.641 E1.90371
G1 X-1.245 Y12.621 E1.93179
G1 X-2.508 Y12.481 E1.98885
G1 X-3.704 Y12.255 E2.04350
G1 X-4.788 Y11.996 E2.09354
G1 X-5.837 Y11.720 E2.14225
G1 X-6.757 Y11.443 E2.18539
G1 X-7.619 Y11.152 E2.22624
G1 X-8.314 Y10.844 E2.26037
G1 X-11.492 Y9.162 E2.42182
G1 X-11.464 Y9.057 E2.42670
G1 X-11.584 Y8.985 E2.43299
G1 X-12.240 Y8.381 E2.47302
G1 X-12.623 Y8.024 E2.49653
G1 X-12.624 Y8.025 E2.49660
G1 X-12.885 Y7.782 E2.51261
G1 X-13.263 Y7.393 E2.53696
G1 X-14.028 Y6.388 E2.59368
G1 X-14.597 Y5.581 E2.63801
G1 X-15.119 Y4.337 E2.69859
G1 X-15.407 Y3.663 E2.73150
G1 X-15.627 Y2.208 E2.79757
G1 X-15.723 Y1.528 E2.82841
G1 X-15.529 Y0.241 E2.88685
G1 X-15.530 Y0.241 E2.88689
G1 X-15.410 Y-0.562 E2.92335
G1 X-14.846 Y-1.901 E2.98859
G1 X-14.845 Y-1.901 E2.98863
G1 X-14.597 Y-2.491 E3.01737
G1 X-14.029 Y-3.298 E3.06168
G1 X-13.499 Y-3.994 E3.10096
G1 X-12.974 Y-4.609 E3.13727
G1 X-12.240 Y-5.294 E3.18235
G1 X-11.571 Y-5.906 E3.22306
G1 X-11.464 Y-5.969 E3.22864
G1 X-11.493 Y-6.078 E3.23370
G1 X-8.312 Y-7.754 E3.39514
G1 X-7.637 Y-8.054 E3.42831
G1 X-6.914 Y-8.305 E3.46267
G1 X-6.101 Y-8.550 E3.50080
G1 X-5.062 Y-8.834 E3.54916
G1 X-4.039 Y-9.086 E3.59647
G1 X-3.031 Y-9.292 E3.64267
G1 X-2.509 Y-9.389 E3.66651
G1 X-1.824 Y-9.467 E3.69746
G1 X-1.246 Y-9.529 E3.72356
G1 X0.010 Y-9.576 E3.78000
G1 X0.633 Y-9.551 E3.80800
G0 F9000 X0.614 Y-9.151
G1 F1800 X1.230 Y-9.131 E3.83567
G1 X2.463 Y-8.995 E3.89137
G1 X3.633 Y-8.774 E3.94483
G1 X4.705 Y-8.518 E3.99432
G1 X5.741 Y-8.244 E4.04244
G1 X6.647 Y-7.972 E4.08491
G1 X7.485 Y-7.689 E4.12463
G1 X8.150 Y-7.394 E4.15729
G1 X11.032 Y-5.868 E4.30372
G1 X11.008 Y-5.778 E4.30790
G1 X11.349 Y-5.573 E4.32576
G1 X11.975 Y-4.999 E4.36390
G1 X12.393 Y-4.611 E4.38951
G1 X12.941 Y-4.075 E4.42393
G1 X13.712 Y-3.061 E4.48112
G1 X14.251 Y-2.296 E4.52314
G1 X14.761 Y-1.081 E4.58231
G1 X15.025 Y-0.458 E4.61269
G1 X15.237 Y0.942 E4.67627
G1 X15.323 Y1.562 E4.70437
G1 X15.139 Y2.794 E4.76031
G1 X15.025 Y3.544 E4.79437
G1 X14.484 Y4.834 E4.85718
G1 X14.249 Y5.389 E4.88424
G1 X13.713 Y6.150 E4.92604
G1 X13.196 Y6.832 E4.96446
G1 X12.692 Y7.421 E4.99927
G1 X11.976 Y8.090 E5.04327
G1 X11.339 Y8.672 E5.08201
G1 X11.007 Y8.868 E5.09932
G1 X11.033 Y8.964 E5.10379
G1 X8.148 Y10.484 E5.25021
G1 X7.501 Y10.771 E5.28199
G1 X6.802 Y11.014 E5.31522
G1 X6.002 Y11.256 E5.35275
G1 X4.975 Y11.537 E5.40055
G1 X3.964 Y11.785 E5.44729
G1 X2.970 Y11.989 E5.49286
G1 X2.464 Y12.084 E5.51597
G1 X1.795 Y12.160 E5.54621
G1 X1.230 Y12.220 E5.57172
G1 X0.002 Y12.265 E5.62689
G1 X-0.601 Y12.241 E5.65399
G1 X-1.217 Y12.221 E5.68166
G1 X-2.449 Y12.085 E5.73732
G1 X-3.620 Y11.864 E5.79083
G1 X-4.691 Y11.608 E5.84027
G1 X-5.729 Y11.335 E5.88846
G1 X-6.635 Y11.062 E5.93095
G1 X-7.474 Y10.779 E5.97071
G1 X-8.140 Y10.484 E6.00341
G1 X-11.022 Y8.958 E6.14984
G1 X-10.998 Y8.870 E6.15393
G1 X-11.344 Y8.663 E6.17204
G1 X-11.969 Y8.087 E6.21020
G1 X-12.355 Y7.728 E6.23387
G1 X-12.606 Y7.496 E6.24922
G1 X-12.959 Y7.132 E6.27199
G1 X-13.706 Y6.152 E6.32731
G1 X-14.245 Y5.386 E6.36937
G1 X-14.759 Y4.162 E6.42898
G1 X-15.019 Y3.553 E6.45871
G1 X-15.232 Y2.151 E6.52238
G1 X-15.318 Y1.530 E6.55053
G1 X-15.134 Y0.298 E6.60647
G1 X-15.021 Y-0.453 E6.64057
G1 X-14.478 Y-1.744 E6.70345
G1 X-14.245 Y-2.296 E6.73036
G1 X-13.706 Y-3.061 E6.77238
G1 X-13.187 Y-3.743 E6.81086
G1 X-12.684 Y-4.332 E6.84563
G1 X-11.968 Y-5.000 E6.88960
G1 X-11.331 Y-5.583 E6.92838
G1 X-10.997 Y-5.779 E6.94576
G1 X-11.023 Y-5.874 E6.95019
G1 X-8.138 Y-7.394 E7.09661
G1 X-7.490 Y-7.682 E7.12845
G1 X-6.790 Y-7.925 E7.16172
G1 X-5.991 Y-8.166 E7.19919
G1 X-4.961 Y-8.447 E7.24713
G1 X-3.951 Y-8.695 E7.29383
G1 X-2.955 Y-8.900 E7.33948
G1 X-2.449 Y-8.994 E7.36259
G1 X-1.780 Y-9.070 E7.39283
G1 X-1.217 Y-9.130 E7.41825
G1 X0.010 Y-9.175 E7.47338
G1 X0.614 Y-9.151 E7.50052
G1 F2400 E3.50052
G0 F9000 X0.004 Y-5.372
;TYPE:WALL-INNER
G1 F2400 E7.50052
G1 F1800 X0.968 Y-5.337 E7.54383
G1 X1.892 Y-5.236 E7.58557
G1 X2.833 Y-5.058 E7.62857
G1 X3.784 Y-4.830 E7.67248
G1 X4.699 Y-4.589 E7.71497
G1 X5.501 Y-4.348 E7.75257
G1 X6.096 Y-4.148 E7.78075
G1 X6.495 Y-3.971 E7.80035
G1 X6.569 Y-3.931 E7.80413
G1 X6.541 Y-3.827 E7.80897
G1 X7.315 Y-3.387 E7.84894
G1 X7.438 Y-3.302 E7.85566
G1 X8.121 Y-2.958 E7.88999
G1 X8.505 Y-2.848 E7.90793
G1 X9.064 Y-2.513 E7.93719
G1 X9.777 Y-1.854 E7.98079
G1 X10.083 Y-1.556 E7.99996
G1 X10.639 Y-0.824 E8.04124
G1 X10.909 Y-0.441 E8.06228
G1 X11.261 Y0.398 E8.10313
G1 X11.340 Y0.585 E8.11225
G1 X11.476 Y1.485 E8.15312
G1 X11.484 Y1.543 E8.15575
G1 X11.382 Y2.227 E8.18680
G1 X11.339 Y2.508 E8.19956
G1 X10.983 Y3.358 E8.24094
G1 X10.907 Y3.535 E8.24959
G1 X10.226 Y4.459 E8.30113
G1 X9.946 Y4.787 E8.32049
G1 X9.400 Y5.296 E8.35401
G1 X9.067 Y5.600 E8.37426
G1 X8.503 Y5.938 E8.40378
G1 X8.124 Y6.046 E8.42147
G1 X7.458 Y6.382 E8.45497
G1 X6.544 Y6.927 E8.50275
G1 X6.569 Y7.020 E8.50707
G1 X6.106 Y7.233 E8.52996
G1 X5.617 Y7.403 E8.55320
G1 X4.960 Y7.601 E8.58401
G1 X4.028 Y7.856 E8.62740
G1 X3.129 Y8.077 E8.66897
G1 X2.234 Y8.261 E8.71000
G1 X1.382 Y8.382 E8.74864
G1 X0.960 Y8.427 E8.76769
G1 X0.008 Y8.462 E8.81047
G1 X-0.955 Y8.427 E8.85373
G1 X-1.878 Y8.326 E8.89543
G1 X-2.820 Y8.148 E8.93847
G1 X-3.771 Y7.920 E8.98238
G1 X-4.688 Y7.679 E9.02495
G1 X-5.479 Y7.441 E9.06204
G1 X-6.095 Y7.233 E9.09124
G1 X-6.485 Y7.061 E9.11038
G1 X-6.559 Y7.021 E9.11415
G1 X-6.531 Y6.917 E9.11899
G1 X-7.306 Y6.477 E9.15901
G1 X-7.429 Y6.392 E9.16572
G1 X-8.114 Y6.048 E9.20014
G1 X-8.497 Y5.938 E9.21803
G1 X-9.060 Y5.601 E9.24749
G1 X-9.943 Y4.782 E9.30157
G1 X-10.075 Y4.646 E9.31008
G1 X-10.633 Y3.914 E9.35141
G1 X-10.903 Y3.531 E9.37245
G1 X-11.255 Y2.690 E9.41338
G1 X-11.335 Y2.503 E9.42252
G1 X-11.472 Y1.599 E9.46357
G1 X-11.479 Y1.546 E9.46597
G1 X-11.334 Y0.583 E9.50970
G1 X-10.902 Y-0.444 E9.55972
G1 X-10.217 Y-1.371 E9.61148
G1 X-9.939 Y-1.697 E9.63072
G1 X-9.392 Y-2.206 E9.66427
G1 X-9.059 Y-2.511 E9.68454
G1 X-8.496 Y-2.847 E9.71398
G1 X-8.116 Y-2.955 E9.73172
G1 X-7.448 Y-3.292 E9.76531
G1 X-6.534 Y-3.837 E9.81310
G1 X-6.559 Y-3.930 E9.81742
G1 X-6.096 Y-4.143 E9.84030
G1 X-5.606 Y-4.313 E9.86359
G1 X-4.949 Y-4.511 E9.89440
G1 X-4.015 Y-4.766 E9.93787
G1 X-3.116 Y-4.987 E9.97944
G1 X-2.219 Y-5.171 E10.02056
G1 X-1.367 Y-5.292 E10.05920
G1 X-0.946 Y-5.337 E10.07821
G1 X0.004 Y-5.372 E10.12089
G0 F9000 X0.005 Y-5.773
;TYPE:WALL-OUTER
G1 F1800 X0.987 Y-5.737 E10.16502
G1 X1.957 Y-5.630 E10.20883
G1 X2.918 Y-5.448 E10.25275
G1 X3.877 Y-5.219 E10.29702
G1 X4.814 Y-4.973 E10.34052
G1 X5.616 Y-4.731 E10.37813
G1 X6.243 Y-4.520 E10.40784
G1 X6.660 Y-4.336 E10.42830
G1 X7.039 Y-4.135 E10.44757
G1 X7.008 Y-4.022 E10.45283
G1 X7.532 Y-3.724 E10.47990
G1 X7.643 Y-3.647 E10.48596
G1 X8.268 Y-3.332 E10.51739
G1 X8.663 Y-3.219 E10.53583
G1 X9.308 Y-2.832 E10.56961
G1 X10.045 Y-2.151 E10.61467
G1 X10.387 Y-1.817 E10.63613
G1 X10.966 Y-1.055 E10.67910
G1 X11.261 Y-0.636 E10.70211
G1 X11.726 Y0.469 E10.75594
G1 X11.872 Y1.430 E10.79959
G1 X11.888 Y1.544 E10.80475
G1 X11.726 Y2.620 E10.85361
G1 X11.261 Y3.729 E10.90761
G1 X10.971 Y4.139 E10.93016
G1 X10.550 Y4.694 E10.96144
G1 X10.231 Y5.068 E10.98351
G1 X9.671 Y5.592 E11.01794
G1 X9.305 Y5.924 E11.04013
G1 X8.666 Y6.308 E11.07361
G1 X8.270 Y6.420 E11.09208
G1 X7.651 Y6.733 E11.12323
G1 X7.009 Y7.115 E11.15677
G1 X7.039 Y7.225 E11.16189
G1 X6.250 Y7.606 E11.20123
G1 X5.748 Y7.781 E11.22510
G1 X5.065 Y7.987 E11.25714
G1 X4.118 Y8.246 E11.30122
G1 X3.220 Y8.467 E11.34274
G1 X2.318 Y8.652 E11.38409
G1 X1.959 Y8.719 E11.40048
G1 X1.422 Y8.780 E11.42475
G1 X0.988 Y8.826 E11.44435
G1 X0.007 Y8.863 E11.48843
G1 X-0.974 Y8.827 E11.53251
G1 X-1.943 Y8.720 E11.57628
G1 X-2.905 Y8.538 E11.62024
G1 X-3.864 Y8.309 E11.66451
G1 X-4.803 Y8.063 E11.70810
G1 X-5.605 Y7.821 E11.74571
G1 X-6.243 Y7.606 E11.77594
G1 X-6.650 Y7.426 E11.79592
G1 X-7.029 Y7.225 E11.81519
G1 X-6.998 Y7.112 E11.82045
G1 X-7.523 Y6.814 E11.84755
G1 X-7.634 Y6.737 E11.85362
G1 X-8.260 Y6.422 E11.88508
G1 X-8.655 Y6.309 E11.90353
G1 X-9.301 Y5.922 E11.93734
G1 X-10.224 Y5.068 E11.99381
G1 X-10.379 Y4.908 E12.00381
G1 X-10.960 Y4.145 E12.04687
G1 X-11.255 Y3.726 E12.06988
G1 X-11.624 Y2.846 E12.11273
G1 X-11.722 Y2.616 E12.12395
G1 X-11.867 Y1.659 E12.16741
G1 X-11.883 Y1.546 E12.17254
G1 X-11.721 Y0.471 E12.22135
G1 X-11.254 Y-0.640 E12.27546
G1 X-10.965 Y-1.049 E12.29795
G1 X-10.543 Y-1.604 E12.32926
G1 X-10.222 Y-1.981 E12.35149
G1 X-9.663 Y-2.502 E12.38580
G1 X-9.296 Y-2.836 E12.40808
G1 X-8.657 Y-3.218 E12.44151
G1 X-8.262 Y-3.330 E12.45994
G1 X-7.641 Y-3.643 E12.49117
G1 X-6.999 Y-4.025 E12.52471
G1 X-7.029 Y-4.135 E12.52983
G1 X-6.240 Y-4.516 E12.56917
G1 X-5.737 Y-4.691 E12.59309
G1 X-5.054 Y-4.897 E12.62512
G1 X-4.105 Y-5.156 E12.66929
G1 X-3.207 Y-5.377 E12.71081
G1 X-2.303 Y-5.562 E12.75224
G1 X-1.944 Y-5.629 E12.76864
G1 X-1.407 Y-5.690 E12.79291
G1 X-0.974 Y-5.736 E12.81246
G1 X0.005 Y-5.773 E12.85645
G0 F9000 X0.148 Y-5.225
;TYPE:FILL
G1 F1800 X9.945 Y4.571 E13.47853
G0 F9000 X9.665 Y4.857
G1 F1800 X-0.407 Y-5.215 E14.11810
G0 F9000 X-0.951 Y-5.193
G1 F1800 X9.372 Y5.130 E14.77361
G0 F9000 X9.076 Y5.399
G1 F1800 X-1.460 Y-5.137 E15.44264
G0 F9000 X-1.955 Y-5.066
G1 F1800 X8.741 Y5.630 E16.12184
G0 F9000 X8.374 Y5.829
G1 F1800 X-2.436 Y-4.982 E16.80830
G0 F9000 X-2.906 Y-4.886
G1 F1800 X7.954 Y5.974 E17.49791
G0 F9000 X7.578 Y6.164
G1 F1800 X-3.366 Y-4.780 E18.19285
G0 F9000 X-3.819 Y-4.668
G1 F1800 X7.213 Y6.365 E18.89341
G0 F9000 X6.858 Y6.576
G1 F1800 X-4.268 Y-4.550 E19.59991
G0 F9000 X-4.712 Y-4.430
G1 F1800 X6.504 Y6.787 E20.31216
G0 F9000 X6.190 Y7.038
G1 F1800 X-5.151 Y-4.303 E21.03231
G0 F9000 X-5.585 Y-4.171
G1 F1800 X5.781 Y7.195 E21.75405
G0 F9000 X5.354 Y7.334
G1 F1800 X-6.005 Y-4.025 E22.47535
G0 F9000 X-6.390 Y-3.845
G1 F1800 X4.920 Y7.466 E23.19356
G0 F9000 X4.475 Y7.587
G1 F1800 X-6.691 Y-3.580 E23.90263
G0 F9000 X-7.046 Y-3.369
G1 F1800 X4.031 Y7.708 E24.60602
G0 F9000 X3.578 Y7.821
G1 F1800 X-7.401 Y-3.158 E25.30319
G0 F9000 X-7.777 Y-2.969
G1 F1800 X3.124 Y7.933 E25.99543
G0 F9000 X2.655 Y8.029
G1 F1800 X-8.168 Y-2.794 E26.68269
G0 F9000 X-8.575 Y-2.636
G1 F1800 X2.184 Y8.124 E27.36592
G0 F9000 X1.690 Y8.196
G1 F1800 X-8.929 Y-2.423 E28.04022
G0 F9000 X-9.231 Y-2.160
G1 F1800 X1.190 Y8.261 E28.70195
G0 F9000 X0.660 Y8.297
G1 F1800 X-9.525 Y-1.888 E29.34870
G0 F9000 X-9.819 Y-1.617
G1 F1800 X0.114 Y8.316 E29.97944
G0 F9000 X-0.464 Y8.303
G1 F1800 X-10.081 Y-1.313 E30.59009
G0 F9000 X-10.324 Y-0.990
G1 F1800 X-1.061 Y8.272 E31.17826
G0 F9000 X-1.696 Y8.203
G1 F1800 X-10.564 Y-0.665 E31.74137
G0 F9000 X-10.798 Y-0.333
G1 F1800 X-2.378 Y8.087 E32.27604
G0 F9000 X-3.092 Y7.938
G1 F1800 X-10.965 Y0.065 E32.77598
G0 F9000 X-11.131 Y0.464
G1 F1800 X-3.840 Y7.756 E33.23899
G0 F9000 X-4.607 Y7.554
G1 F1800 X-11.242 Y0.919 E33.66031
G0 F9000 X-11.315 Y1.412
G1 F1800 X-5.412 Y7.315 E34.03515
G0 F9000 X-6.308 Y6.984
G1 F1800 X-6.384 Y6.909 E34.03994
G0 F9000 X-6.547 Y6.745
G1 F1800 X-11.264 Y2.029 E34.33944
G0 F9000 X-11.056 Y2.802
G1 F1800 X-7.819 Y6.040 E34.54502
G0 F9000 X-8.883 Y5.541
G1 F1800 X-10.279 Y4.145 E34.63366
G0 F9000 X0.736 Y-5.203
G1 F1800 X10.198 Y4.258 E35.23447
G0 F9000 X10.438 Y3.932
G1 F1800 X1.353 Y-5.151 E35.81130
G0 F9000 X2.000 Y-5.070
G1 F1800 X10.678 Y3.607 E36.36232
G0 F9000 X10.880 Y3.243
G1 F1800 X2.697 Y-4.939 E36.88191
G0 F9000 X3.432 Y-4.770
G1 F1800 X11.046 Y2.843 E37.36537
G0 F9000 X11.206 Y2.438
G1 F1800 X4.190 Y-4.577 E37.81085
G0 F9000 X4.975 Y-4.358
G1 F1800 X11.281 Y1.947 E38.21125
G0 F9000 X11.325 Y1.426
G1 F1800 X5.800 Y-4.099 E38.56208
G0 F9000 X7.141 Y-3.323
G1 F1800 X11.223 Y0.758 E38.82126
G0 F9000 X10.879 Y-0.151
G1 F1800 X8.256 Y-2.773 E38.98779
;LAYER:1
M106 S127
G0 F9000 X8.728 Y-2.797 Z0.500
;TYPE:WALL-INNER
G1 F2820 X9.082 Y-2.687 E38.99888
G1 X9.568 Y-2.371 E39.01624
G1 X9.954 Y-2.012 E39.03202
G1 X10.501 Y-1.447 E39.05556
G1 X11.038 Y-0.698 E39.08314
G1 X11.265 Y-0.374 E39.09499
G1 X11.510 Y0.212 E39.11400
G1 X11.662 Y0.605 E39.12661
G1 X11.794 Y1.546 E39.15506
G1 X11.691 Y2.281 E39.17727
G1 X11.663 Y2.479 E39.18326
G1 X11.284 Y3.419 E39.21360
G1 X11.264 Y3.466 E39.21513
G1 X10.755 Y4.201 E39.24189
G1 X10.501 Y4.537 E39.25450
G1 X9.955 Y5.101 E39.27799
G1 X9.570 Y5.460 E39.29375
G1 X9.136 Y5.748 E39.30934
G1 X9.095 Y5.773 E39.31078
G1 X8.725 Y5.887 E39.32237
G1 X8.248 Y6.167 E39.33893
G1 X8.136 Y6.223 E39.34268
G1 X7.300 Y6.799 E39.37307
G1 X7.330 Y6.895 E39.37608
G1 X7.003 Y7.069 E39.38716
G1 X5.644 Y7.571 E39.43053
G1 X4.860 Y7.807 E39.45504
G1 X4.268 Y7.968 E39.47340
G1 X3.784 Y8.094 E39.48838
G1 X2.833 Y8.322 E39.51765
G1 X1.891 Y8.500 E39.54635
G1 X1.066 Y8.590 E39.57119
G1 X0.003 Y8.633 E39.60304
G1 X-0.942 Y8.601 E39.63134
G1 X-1.799 Y8.509 E39.65714
G1 X-2.583 Y8.368 E39.68098
G1 X-3.397 Y8.184 E39.70597
G1 X-4.258 Y7.966 E39.73255
G1 X-4.852 Y7.807 E39.75096
G1 X-5.609 Y7.578 E39.77463
G1 X-6.378 Y7.311 E39.79900
G1 X-7.007 Y7.064 E39.81923
G1 X-7.325 Y6.895 E39.83001
G1 X-7.295 Y6.796 E39.83311
G1 X-8.115 Y6.232 E39.86290
G1 X-8.720 Y5.887 E39.88374
G1 X-9.073 Y5.778 E39.89480
G1 X-9.561 Y5.461 E39.91222
G1 X-9.935 Y5.112 E39.92754
G1 X-10.492 Y4.538 E39.95148
G1 X-11.039 Y3.778 E39.97951
G1 X-11.258 Y3.465 E39.99094
G1 X-11.512 Y2.861 E40.01056
G1 X-11.655 Y2.486 E40.02257
G1 X-11.788 Y1.545 E40.05102
G1 X-11.685 Y0.809 E40.07326
G1 X-11.657 Y0.610 E40.07928
G1 X-11.274 Y-0.339 E40.10991
G1 X-10.748 Y-1.111 E40.13788
G1 X-10.497 Y-1.442 E40.15031
G1 X-9.932 Y-2.025 E40.17461
G1 X-9.561 Y-2.372 E40.18982
G1 X-9.138 Y-2.651 E40.20499
G1 X-9.085 Y-2.683 E40.20684
G1 X-8.717 Y-2.798 E40.21838
G1 X-8.241 Y-3.077 E40.23490
G1 X-8.128 Y-3.133 E40.23867
G1 X-7.291 Y-3.708 E40.26907
G1 X-7.321 Y-3.805 E40.27211
G1 X-6.998 Y-3.977 E40.28307
G1 X-6.539 Y-4.165 E40.29791
G1 X-5.633 Y-4.481 E40.32664
G1 X-4.848 Y-4.717 E40.35117
G1 X-4.249 Y-4.880 E40.36976
G1 X-3.771 Y-5.006 E40.38455
G1 X-2.821 Y-5.232 E40.41378
G1 X-1.879 Y-5.409 E40.44247
G1 X-1.051 Y-5.500 E40.46741
G1 X0.009 Y-5.543 E40.49917
G1 X0.955 Y-5.511 E40.52750
G1 X1.813 Y-5.419 E40.55333
G1 X2.610 Y-5.275 E40.57757
G1 X3.410 Y-5.094 E40.60213
G1 X4.271 Y-4.876 E40.62871
G1 X5.220 Y-4.609 E40.65822
G1 X6.388 Y-4.221 E40.69507
G1 X7.012 Y-3.975 E40.71514
G1 X7.334 Y-3.805 E40.72604
G1 X7.304 Y-3.706 E40.72914
G1 X8.123 Y-3.142 E40.75891
G1 X8.728 Y-2.797 E40.77975
G0 F9000 X8.888 Y-3.166
;TYPE:WALL-OUTER
G1 F2220 X9.252 Y-3.054 E40.79115
G1 X9.821 Y-2.683 E40.81149
G1 X10.226 Y-2.305 E40.82807
G1 X10.810 Y-1.702 E40.85320
G1 X11.069 Y-1.361 E40.86602
G1 X11.367 Y-0.925 E40.88183
G1 X11.618 Y-0.567 E40.89491
G1 X11.884 Y0.068 E40.91552
G1 X12.051 Y0.504 E40.92950
G1 X12.198 Y1.546 E40.96100
G1 X12.052 Y2.582 E40.99232
G1 X11.651 Y3.577 E41.02443
G1 X11.618 Y3.658 E41.02705
G1 X11.075 Y4.442 E41.05559
G1 X10.806 Y4.796 E41.06890
G1 X10.227 Y5.394 E41.09382
G1 X9.822 Y5.772 E41.11040
G1 X9.354 Y6.083 E41.12722
G1 X9.259 Y6.141 E41.13056
G1 X8.888 Y6.256 E41.14218
G1 X8.434 Y6.522 E41.15793
G1 X8.340 Y6.568 E41.16107
G1 X7.770 Y6.961 E41.18179
G1 X7.805 Y7.072 E41.18527
G1 X7.176 Y7.430 E41.20694
G1 X6.695 Y7.627 E41.22250
G1 X5.759 Y7.954 E41.25218
G1 X4.975 Y8.190 E41.27669
G1 X4.369 Y8.355 E41.29549
G1 X3.877 Y8.483 E41.31070
G1 X2.918 Y8.712 E41.34022
G1 X1.957 Y8.894 E41.36950
G1 X1.081 Y8.990 E41.39588
G1 X0.005 Y9.034 E41.42811
G1 X-0.971 Y9.000 E41.45734
G1 X-1.842 Y8.907 E41.48357
G1 X-2.668 Y8.758 E41.50869
G1 X-3.495 Y8.572 E41.53406
G1 X-4.356 Y8.354 E41.56065
G1 X-4.969 Y8.189 E41.57965
G1 X-5.739 Y7.956 E41.60373
G1 X-6.509 Y7.689 E41.62813
G1 X-7.169 Y7.430 E41.64935
G1 X-7.571 Y7.217 E41.66297
G1 X-7.796 Y7.071 E41.67100
G1 X-7.762 Y6.960 E41.67448
G1 X-8.328 Y6.571 E41.69503
G1 X-8.880 Y6.256 E41.71406
G1 X-9.243 Y6.144 E41.72543
G1 X-9.810 Y5.775 E41.74568
G1 X-10.225 Y5.388 E41.76267
G1 X-10.801 Y4.795 E41.78741
G1 X-11.364 Y4.012 E41.81628
G1 X-11.611 Y3.659 E41.82918
G1 X-11.878 Y3.022 E41.84985
G1 X-12.045 Y2.585 E41.86386
G1 X-12.192 Y1.546 E41.89527
G1 X-12.046 Y0.506 E41.92671
G1 X-11.645 Y-0.488 E41.95879
G1 X-11.612 Y-0.567 E41.96135
G1 X-11.068 Y-1.352 E41.98994
G1 X-10.799 Y-1.706 E42.00325
G1 X-10.226 Y-2.297 E42.02789
G1 X-9.809 Y-2.686 E42.04496
G1 X-9.346 Y-2.993 E42.06159
G1 X-9.250 Y-3.051 E42.06495
G1 X-8.880 Y-3.166 E42.07655
G1 X-8.425 Y-3.432 E42.09232
G1 X-8.332 Y-3.478 E42.09543
G1 X-7.761 Y-3.871 E42.11618
G1 X-7.796 Y-3.982 E42.11966
G1 X-7.166 Y-4.340 E42.14135
G1 X-6.685 Y-4.537 E42.15691
G1 X-5.748 Y-4.864 E42.18662
G1 X-4.963 Y-5.100 E42.21116
G1 X-4.354 Y-5.266 E42.23005
G1 X-3.864 Y-5.395 E42.24522
G1 X-2.905 Y-5.623 E42.27473
G1 X-1.944 Y-5.804 E42.30400
G1 X-1.068 Y-5.900 E42.33038
G1 X0.007 Y-5.944 E42.36259
G1 X0.984 Y-5.910 E42.39185
G1 X1.856 Y-5.817 E42.41810
G1 X2.928 Y-5.623 E42.45071
G1 X3.508 Y-5.482 E42.46858
G1 X4.368 Y-5.264 E42.49513
G1 X5.758 Y-4.863 E42.53844
G1 X6.519 Y-4.599 E42.56255
G1 X7.175 Y-4.341 E42.58365
G1 X7.805 Y-3.981 E42.60537
G1 X7.771 Y-3.870 E42.60885
G1 X8.336 Y-3.481 E42.62938
G1 X8.888 Y-3.166 E42.64841
G0 F9000 X8.630 Y-2.691
;TYPE:FILL
G1 F2820 X-2.331 Y8.271 E43.11244
G0 F9000 X-2.800 Y8.174
G1 F2820 X8.271 Y-2.897 E43.58111
G0 F9000 X7.920 Y-3.111
G1 F2820 X-3.262 Y8.070 E44.05446
G0 F9000 X-3.714 Y7.957
G1 F2820 X7.585 Y-3.342 E44.53279
G0 F9000 X7.249 Y-3.573
G1 F2820 X-4.163 Y7.840 E45.01591
G0 F9000 X-4.613 Y7.724
G1 F2820 X6.957 Y-3.845 E45.50569
G0 F9000 X6.552 Y-4.006
G1 F2820 X-5.054 Y7.599 E45.99699
G0 F9000 X-5.488 Y7.468
G1 F2820 X6.136 Y-4.156 E46.48907
G0 F9000 X5.712 Y-4.297
G1 F2820 X-5.910 Y7.324 E46.98104
G0 F9000 X-6.330 Y7.178
G1 F2820 X5.287 Y-4.439 E47.47283
G0 F9000 X4.850 Y-4.567
G1 F2820 X-6.737 Y7.020 E47.96334
G0 F9000 X-7.125 Y6.842
G1 F2820 X4.408 Y-4.690 E48.45155
G0 F9000 X3.960 Y-4.809
G1 F2820 X-7.400 Y6.552 E48.93248
G0 F9000 X-7.736 Y6.322
G1 F2820 X3.509 Y-4.923 E49.40852
G0 F9000 X3.051 Y-5.031
G1 F2820 X-8.073 Y6.093 E49.87943
G0 F9000 X-8.434 Y5.888
G1 F2820 X2.589 Y-5.135 E50.34607
G0 F9000 X2.110 Y-5.221
G1 F2820 X-8.820 Y5.709 E50.80877
G0 F9000 X-9.202 Y5.526
G1 F2820 X1.620 Y-5.297 E51.26693
G0 F9000 X1.110 Y-5.352
G1 F2820 X-9.535 Y5.292 E51.71754
G0 F9000 X-9.828 Y5.019
G1 F2820 X0.574 Y-5.383 E52.15789
G0 F9000 X0.028 Y-5.402
G1 F2820 X-10.106 Y4.732 E52.58690
G0 F9000 X-10.385 Y4.445
G1 F2820 X-0.560 Y-5.378 E53.00278
G0 F9000 X-1.158 Y-5.346
G1 F2820 X-10.620 Y4.115 E53.40331
G0 F9000 X-10.856 Y3.785
G1 F2820 X-1.794 Y-5.276 E53.78692
G0 F9000 X-2.484 Y-5.151
G1 F2820 X-11.091 Y3.454 E54.15124
G0 F9000 X-11.271 Y3.069
G1 F2820 X-3.206 Y-4.995 E54.49263
G0 F9000 X-3.955 Y-4.812
G1 F2820 X-11.435 Y2.667 E54.80926
G0 F9000 X-11.550 Y2.216
G1 F2820 X-4.730 Y-4.603 E55.09796
G0 F9000 X-5.535 Y-4.363
G1 F2820 X-11.621 Y1.721 E55.35555
G0 F9000 X-11.585 Y1.120
G1 F2820 X-6.400 Y-4.065 E55.57505
G0 F9000 X-7.937 Y-3.093
G1 F2820 X-11.412 Y0.381 E55.72214
G0 F9000 X-10.775 Y-0.820
G1 F2820 X-9.066 Y-2.530 E55.79451
G0 F9000 X-1.851 Y8.357
G1 F2820 X9.048 Y-2.542 E56.25590
G0 F9000 X9.390 Y-2.319
G1 F2820 X-1.344 Y8.415 E56.71030
G0 F9000 X-0.827 Y8.464
G1 F2820 X9.696 Y-2.059 E57.15578
G0 F9000 X9.982 Y-1.780
G1 F2820 X-0.280 Y8.483 E57.59022
G0 F9000 X0.287 Y8.481
G1 F2820 X10.260 Y-1.492 E58.01241
G0 F9000 X10.516 Y-1.182
G1 F2820 X0.876 Y8.456 E58.42046
G0 F9000 X1.498 Y8.401
G1 F2820 X10.751 Y-0.852 E58.81217
G0 F9000 X10.986 Y-0.521
G1 F2820 X2.160 Y8.304 E59.18578
G0 F9000 X2.858 Y8.172
G1 F2820 X11.197 Y-0.166 E59.53878
G0 F9000 X11.364 Y0.231
G1 F2820 X3.603 Y7.993 E59.86735
G0 F9000 X4.369 Y7.792
G1 F2820 X11.523 Y0.639 E60.17018
G0 F9000 X11.593 Y1.134
G1 F2820 X5.158 Y7.569 E60.44259
G0 F9000 X6.006 Y7.287
G1 F2820 X11.636 Y1.657 E60.68093
G0 F9000 X11.542 Y2.316
G1 F2820 X6.902 Y6.956 E60.87735
G0 F9000 X8.664 Y5.760
G1 F2820 X11.217 Y3.207 E60.98543
;LAYER:2
M106 S255
G0 F9000 X11.230 Y3.956 Z0.700
;TYPE:WALL-INNER
G1 F3900 X10.902 Y4.432 E61.00273
G1 X10.437 Y4.921 E61.02293
G1 X10.057 Y5.315 E61.03932
G1 X9.606 Y5.617 E61.05557
G1 X9.289 Y5.727 E61.06561
G1 X8.709 Y6.080 E61.08594
G1 X8.001 Y6.651 E61.11316
G1 X8.025 Y6.738 E61.11586
G1 X7.772 Y6.901 E61.12487
G1 X7.296 Y7.124 E61.14061
G1 X6.540 Y7.436 E61.16509
G1 X4.944 Y7.957 E61.21535
G1 X3.787 Y8.269 E61.25122
G1 X2.846 Y8.483 E61.28010
G1 X1.909 Y8.645 E61.30857
G1 X0.969 Y8.738 E61.33684
G1 X0.007 Y8.771 E61.36566
G1 X-0.808 Y8.743 E61.39007
G1 X-1.778 Y8.657 E61.41922
G1 X-2.781 Y8.492 E61.44965
G1 X-3.384 Y8.364 E61.46810
G1 X-4.485 Y8.083 E61.50211
G1 X-5.623 Y7.748 E61.53762
G1 X-6.552 Y7.426 E61.56705
G1 X-7.262 Y7.135 E61.59002
G1 X-7.764 Y6.901 E61.60660
G1 X-8.017 Y6.738 E61.61561
G1 X-7.993 Y6.651 E61.61831
G1 X-8.701 Y6.080 E61.64554
G1 X-9.186 Y5.788 E61.66249
G1 X-9.268 Y5.732 E61.66546
G1 X-9.599 Y5.617 E61.67595
G1 X-10.019 Y5.339 E61.69102
G1 X-10.432 Y4.919 E61.70866
G1 X-10.893 Y4.435 E61.72867
G1 X-11.558 Y3.475 E61.76362
G1 X-11.600 Y3.409 E61.76597
G1 X-11.839 Y2.791 E61.78580
G1 X-11.970 Y2.448 E61.79679
G1 X-12.065 Y1.764 E61.81746
G1 X-12.097 Y1.544 E61.82412
G1 X-11.969 Y0.639 E61.85148
G1 X-11.604 Y-0.310 E61.88191
G1 X-11.224 Y-0.866 E61.90207
G1 X-10.895 Y-1.342 E61.91939
G1 X-10.431 Y-1.830 E61.93955
G1 X-10.039 Y-2.234 E61.95640
G1 X-9.598 Y-2.527 E61.97225
G1 X-9.281 Y-2.638 E61.98230
G1 X-8.701 Y-2.990 E62.00261
G1 X-7.993 Y-3.561 E62.02984
G1 X-8.017 Y-3.648 E62.03254
G1 X-7.767 Y-3.809 E62.04144
G1 X-7.269 Y-4.042 E62.05790
G1 X-6.535 Y-4.344 E62.08166
G1 X-6.090 Y-4.497 E62.09575
G1 X-4.917 Y-4.871 E62.13260
G1 X-3.768 Y-5.182 E62.16823
G1 X-2.830 Y-5.394 E62.19702
G1 X-1.899 Y-5.555 E62.22530
G1 X-0.956 Y-5.648 E62.25366
G1 X0.005 Y-5.681 E62.28245
G1 X0.821 Y-5.653 E62.30689
G1 X1.792 Y-5.567 E62.33607
G1 X2.795 Y-5.403 E62.36649
G1 X3.394 Y-5.276 E62.38482
G1 X4.497 Y-4.993 E62.41891
G1 X5.640 Y-4.656 E62.45458
G1 X6.561 Y-4.337 E62.48375
G1 X7.296 Y-4.036 E62.50753
G1 X7.769 Y-3.814 E62.52317
G1 X8.025 Y-3.649 E62.53229
G1 X8.001 Y-3.561 E62.53502
G1 X8.709 Y-2.990 E62.56224
G1 X9.194 Y-2.698 E62.57919
G1 X9.276 Y-2.642 E62.58216
G1 X9.608 Y-2.526 E62.59269
G1 X10.028 Y-2.249 E62.60775
G1 X10.046 Y-2.236 E62.60842
G1 X10.438 Y-1.829 E62.62533
G1 X10.789 Y-1.470 E62.64036
G1 X10.896 Y-1.350 E62.64517
G1 X11.231 Y-0.866 E62.66279
G1 X11.564 Y-0.385 E62.68030
G1 X11.605 Y-0.321 E62.68258
G1 X11.845 Y0.299 E62.70248
G1 X11.977 Y0.639 E62.71340
G1 X12.072 Y1.325 E62.73413
G1 X12.103 Y1.546 E62.74081
G1 X11.977 Y2.448 E62.76807
G1 X11.610 Y3.401 E62.79864
G1 X11.230 Y3.956 E62.81878
G0 F9000 X11.216 Y4.682
;TYPE:WALL-OUTER
G1 F2700 X10.725 Y5.198 E62.84010
G1 X10.311 Y5.627 E62.85794
G1 X9.791 Y5.976 E62.87669
G1 X9.461 Y6.091 E62.88715
G1 X8.940 Y6.408 E62.90541
G1 X8.456 Y6.798 E62.92401
G1 X8.487 Y6.913 E62.92758
G1 X7.967 Y7.252 E62.94616
G1 X7.448 Y7.495 E62.96331
G1 X6.691 Y7.807 E62.98782
G1 X5.061 Y8.340 E63.03916
G1 X3.877 Y8.659 E63.07586
G1 X2.925 Y8.875 E63.10509
G1 X1.964 Y9.042 E63.13428
G1 X0.991 Y9.138 E63.16355
G1 X0.006 Y9.172 E63.19305
G1 X-0.978 Y9.137 E63.22253
G1 X-1.836 Y9.053 E63.24833
G1 X-2.856 Y8.886 E63.27927
G1 X-3.467 Y8.755 E63.29798
G1 X-4.605 Y8.465 E63.33313
G1 X-5.741 Y8.131 E63.36858
G1 X-6.686 Y7.803 E63.39852
G1 X-7.441 Y7.494 E63.42294
G1 X-7.961 Y7.251 E63.44012
G1 X-8.452 Y6.935 E63.45760
G1 X-8.479 Y6.913 E63.45864
G1 X-8.448 Y6.798 E63.46221
G1 X-8.931 Y6.409 E63.48077
G1 X-9.384 Y6.136 E63.49660
G1 X-9.449 Y6.093 E63.49894
G1 X-9.781 Y5.976 E63.50947
G1 X-10.240 Y5.673 E63.52594
G1 X-10.300 Y5.630 E63.52815
G1 X-11.080 Y4.827 E63.56166
G1 X-11.206 Y4.686 E63.56732
G1 X-11.896 Y3.690 E63.60359
G1 X-11.959 Y3.590 E63.60713
G1 X-12.359 Y2.549 E63.64051
G1 X-12.461 Y1.821 E63.66251
G1 X-12.501 Y1.545 E63.67086
G1 X-12.359 Y0.540 E63.70124
G1 X-11.960 Y-0.499 E63.73456
G1 X-11.553 Y-1.093 E63.75611
G1 X-11.207 Y-1.594 E63.77434
G1 X-10.718 Y-2.108 E63.79558
G1 X-10.300 Y-2.539 E63.81355
G1 X-10.241 Y-2.582 E63.81574
G1 X-9.781 Y-2.886 E63.83224
G1 X-9.453 Y-3.001 E63.84264
G1 X-8.932 Y-3.318 E63.86090
G1 X-8.448 Y-3.708 E63.87951
G1 X-8.479 Y-3.823 E63.88307
G1 X-7.958 Y-4.162 E63.90168
G1 X-7.442 Y-4.403 E63.91873
G1 X-6.680 Y-4.717 E63.94340
G1 X-6.212 Y-4.878 E63.95821
G1 X-5.039 Y-5.252 E63.99507
G1 X-3.864 Y-5.570 E64.03150
G1 X-2.912 Y-5.786 E64.06073
G1 X-1.951 Y-5.952 E64.08992
G1 X-0.978 Y-6.048 E64.11919
G1 X0.006 Y-6.082 E64.14866
G1 X0.991 Y-6.047 E64.17816
G1 X1.849 Y-5.963 E64.20397
G1 X2.869 Y-5.797 E64.23490
G1 X3.480 Y-5.666 E64.25361
G1 X4.617 Y-5.375 E64.28874
G1 X5.760 Y-5.038 E64.32441
G1 X6.697 Y-4.713 E64.35410
G1 X7.450 Y-4.404 E64.37846
G1 X7.618 Y-4.334 E64.38391
G1 X7.965 Y-4.164 E64.39548
G1 X8.459 Y-3.845 E64.41308
G1 X8.487 Y-3.823 E64.41415
G1 X8.456 Y-3.708 E64.41771
G1 X8.939 Y-3.319 E64.43628
G1 X9.392 Y-3.046 E64.45211
G1 X9.457 Y-3.003 E64.45444
G1 X9.790 Y-2.886 E64.46501
G1 X10.249 Y-2.583 E64.48147
G1 X10.308 Y-2.540 E64.48366
G1 X10.725 Y-2.108 E64.50163
G1 X11.088 Y-1.736 E64.51719
G1 X11.208 Y-1.601 E64.52259
G1 X11.901 Y-0.600 E64.55904
G1 X11.965 Y-0.500 E64.56259
G1 X12.366 Y0.540 E64.59596
G1 X12.507 Y1.546 E64.62637
G1 X12.366 Y2.549 E64.65668
G1 X11.966 Y3.589 E64.69004
G1 X11.216 Y4.682 E64.72972
G0 F9000 X10.815 Y4.310
;TYPE:FILL
G1 F3900 X1.011 Y-5.494 E65.14475
G0 F9000 X0.414 Y-5.525
G1 F3900 X10.543 Y4.603 E65.57353
G0 F9000 X10.266 Y4.892
G1 F3900 X-0.159 Y-5.533 E66.01485
G0 F9000 X-0.706 Y-5.514
G1 F3900 X9.990 Y5.181 E66.46763
G0 F9000 X9.656 Y5.414
G1 F3900 X-1.235 Y-5.477 E66.92868
G0 F9000 X-1.750 Y-5.427
G1 F3900 X9.263 Y5.586 E67.39489
G0 F9000 X8.906 Y5.794
G1 F3900 X-2.241 Y-5.352 E67.86676
G0 F9000 X-2.724 Y-5.270
G1 F3900 X8.563 Y6.017 E68.34458
G0 F9000 X8.249 Y6.269
G1 F3900 X-3.189 Y-5.168 E68.82876
G0 F9000 X-3.650 Y-5.064
G1 F3900 X7.937 Y6.523 E69.31928
G0 F9000 X7.650 Y6.802
G1 F3900 X-4.098 Y-4.946 E69.81661
G0 F9000 X-4.543 Y-4.826
G1 F3900 X7.265 Y6.982 E70.31648
G0 F9000 X6.866 Y7.148
G1 F3900 X-4.985 Y-4.702 E70.81815
G0 F9000 X-5.413 Y-4.565
G1 F3900 X6.463 Y7.312 E71.32092
G0 F9000 X6.037 Y7.451
G1 F3900 X-5.842 Y-4.427 E71.82378
G0 F9000 X-6.267 Y-4.287
G1 F3900 X5.610 Y7.590 E72.32657
G0 F9000 X5.184 Y7.730
G1 F3900 X-6.677 Y-4.132 E72.82870
G0 F9000 X-7.079 Y-3.968
G1 F3900 X4.751 Y7.863 E73.32953
G0 F9000 X4.306 Y7.983
G1 F3900 X-7.469 Y-3.792 E73.82800
G0 F9000 X-7.838 Y-3.596
G1 F3900 X3.860 Y8.102 E74.32322
G0 F9000 X3.403 Y8.211
G1 F3900 X-8.101 Y-3.292 E74.81020
G0 F9000 X-8.414 Y-3.040
G1 F3900 X2.942 Y8.316 E75.29093
G0 F9000 X2.465 Y8.405
G1 F3900 X-8.740 Y-2.800 E75.76528
G0 F9000 X-9.092 Y-2.587
G1 F3900 X1.983 Y8.488 E76.23412
G0 F9000 X1.475 Y8.546
G1 F3900 X-9.487 Y-2.416 E76.69817
G0 F9000 X-9.835 Y-2.199
G1 F3900 X0.960 Y8.597 E77.15518
G0 F9000 X0.412 Y8.615
G1 F3900 X-10.134 Y-1.932 E77.60165
G0 F9000 X-10.412 Y-1.644
G1 F3900 X-0.143 Y8.624 E78.03635
G0 F9000 X-0.729 Y8.604
G1 F3900 X-10.688 Y-1.354 E78.45792
G0 F9000 X-10.935 Y-1.035
G1 F3900 X-1.345 Y8.553 E78.86386
G0 F9000 X-1.984 Y8.481
G1 F3900 X-11.165 Y-0.700 E79.25252
G0 F9000 X-11.396 Y-0.365
G1 F3900 X-2.660 Y8.370 E79.62232
G0 F9000 X-3.377 Y8.219
G1 F3900 X-11.579 Y0.016 E79.96956
G0 F9000 X-11.735 Y0.426
G1 F3900 X-4.135 Y8.026 E80.29129
G0 F9000 X-4.919 Y7.808
G1 F3900 X-11.859 Y0.868 E80.58508
G0 F9000 X-11.930 Y1.363
G1 F3900 X-5.732 Y7.561 E80.84747
G0 F9000 X-6.608 Y7.250
G1 F3900 X-11.896 Y1.962 E81.07132
G0 F9000 X-11.720 Y2.704
G1 F3900 X-7.604 Y6.820 E81.24557
G0 F9000 X-9.482 Y5.508
G1 F3900 X-11.095 Y3.895 E81.31385
G0 F9000 X1.631 Y-5.439
G1 F3900 X11.046 Y3.975 E81.71240
G0 F9000 X11.276 Y3.639
G1 F3900 X2.294 Y-5.342 E82.09261
G0 F9000 X2.983 Y-5.218
G1 F3900 X11.499 Y3.297 E82.45310
G0 F9000 X11.656 Y2.888
G1 F3900 X3.722 Y-5.045 E82.78895
G0 F9000 X4.483 Y-4.850
G1 F3900 X11.812 Y2.479 E83.09921
G0 F9000 X11.897 Y1.998
G1 F3900 X5.285 Y-4.613 E83.37910
G0 F9000 X6.125 Y-4.339
G1 F3900 X11.953 Y1.488 E83.62580
G0 F9000 X11.862 Y0.831
G1 F3900 X7.042 Y-3.988 E83.82982
G0 F9000 X8.861 Y-2.735
G1 F3900 X11.567 Y-0.028 E83.94440
;LAYER:3
G0 F9000 X11.935 Y-0.246 Z0.900
;TYPE:WALL-INNER
G1 F3060 X12.289 Y0.673 E83.97388
G1 X12.403 Y1.546 E84.00023
G1 X12.296 Y2.382 E84.02546
G1 X12.292 Y2.413 E84.02640
G1 X12.058 Y3.016 E84.04576
G1 X11.935 Y3.338 E84.05608
G1 X11.576 Y3.898 E84.07599
G1 X11.286 Y4.319 E84.09129
G1 X10.777 Y4.889 E84.11417
G1 X10.506 Y5.169 E84.12583
G1 X10.116 Y5.452 E84.14025
G1 X9.802 Y5.562 E84.15021
G1 X9.258 Y5.928 E84.16984
G1 X8.599 Y6.506 E84.19608
G1 X8.625 Y6.595 E84.19885
G1 X8.442 Y6.737 E84.20579
G1 X7.454 Y7.237 E84.23893
G1 X6.972 Y7.434 E84.25452
G1 X6.546 Y7.609 E84.26831
G1 X5.788 Y7.871 E84.29231
G1 X4.948 Y8.131 E84.31864
G1 X3.782 Y8.418 E84.35458
G1 X2.849 Y8.621 E84.38316
G1 X1.914 Y8.782 E84.41156
G1 X0.969 Y8.875 E84.43999
G1 X0.007 Y8.908 E84.46880
G1 X-0.958 Y8.874 E84.49771
G1 X-1.637 Y8.808 E84.51813
G1 X-2.626 Y8.657 E84.54807
G1 X-3.649 Y8.444 E84.57935
G1 X-4.679 Y8.201 E84.61103
G1 X-5.626 Y7.924 E84.64057
G1 X-6.554 Y7.601 E84.66998
G1 X-7.441 Y7.238 E84.69867
G1 X-8.217 Y6.856 E84.72456
G1 X-8.428 Y6.741 E84.73175
G1 X-8.617 Y6.595 E84.73890
G1 X-8.591 Y6.507 E84.74165
G1 X-9.249 Y5.929 E84.76787
G1 X-9.793 Y5.564 E84.78748
G1 X-10.105 Y5.453 E84.79739
G1 X-10.492 Y5.174 E84.81167
G1 X-11.062 Y4.561 E84.83673
G1 X-11.276 Y4.323 E84.84631
G1 X-11.930 Y3.335 E84.88178
G1 X-12.282 Y2.418 E84.91118
G1 X-12.396 Y1.544 E84.93756
G1 X-12.289 Y0.707 E84.96282
G1 X-12.285 Y0.678 E84.96370
G1 X-12.052 Y0.074 E84.98308
G1 X-11.929 Y-0.247 E84.99337
G1 X-11.559 Y-0.826 E85.01393
G1 X-11.281 Y-1.227 E85.02854
G1 X-10.770 Y-1.799 E85.05150
G1 X-10.496 Y-2.080 E85.06325
G1 X-10.106 Y-2.362 E85.07766
G1 X-9.794 Y-2.473 E85.08757
G1 X-9.250 Y-2.838 E85.10718
G1 X-8.594 Y-3.414 E85.13331
G1 X-8.619 Y-3.504 E85.13611
G1 X-8.434 Y-3.647 E85.14311
G1 X-7.445 Y-4.147 E85.17628
G1 X-6.962 Y-4.344 E85.19189
G1 X-5.788 Y-4.778 E85.22936
G1 X-4.920 Y-5.046 E85.25655
G1 X-3.779 Y-5.327 E85.29173
G1 X-2.837 Y-5.531 E85.32058
G1 X-1.901 Y-5.692 E85.34901
G1 X-0.956 Y-5.785 E85.37743
G1 X0.005 Y-5.818 E85.40622
G1 X0.971 Y-5.784 E85.43515
G1 X1.638 Y-5.720 E85.45521
G1 X2.648 Y-5.566 E85.48579
G1 X3.661 Y-5.355 E85.51677
G1 X4.692 Y-5.112 E85.54848
G1 X5.638 Y-4.834 E85.57799
G1 X6.556 Y-4.515 E85.60708
G1 X7.454 Y-4.146 E85.63614
G1 X8.234 Y-3.762 E85.66217
G1 X8.438 Y-3.651 E85.66912
G1 X8.623 Y-3.508 E85.67612
G1 X8.596 Y-3.419 E85.67890
G1 X9.257 Y-2.839 E85.70523
G1 X9.801 Y-2.473 E85.72485
G1 X10.115 Y-2.363 E85.73481
G1 X10.499 Y-2.085 E85.74900
G1 X11.062 Y-1.479 E85.77376
G1 X11.286 Y-1.230 E85.78379
G1 X11.935 Y-0.246 E85.81908
G0 F9000 X11.902 Y-1.042
;TYPE:WALL-OUTER
G1 F1920 X12.294 Y-0.427 E85.84091
G1 X12.680 Y0.575 E85.87305
G1 X12.807 Y1.546 E85.90236
G1 X12.692 Y2.437 E85.92926
G1 X12.681 Y2.516 E85.93164
G1 X12.296 Y3.516 E85.96372
G1 X11.906 Y4.125 E85.98537
G1 X11.595 Y4.574 E86.00172
G1 X11.081 Y5.150 E86.02483
G1 X10.766 Y5.475 E86.03837
G1 X10.304 Y5.809 E86.05544
G1 X9.983 Y5.923 E86.06564
G1 X9.503 Y6.245 E86.08294
G1 X9.054 Y6.639 E86.10082
G1 X9.085 Y6.746 E86.10415
G1 X8.658 Y7.076 E86.12031
G1 X7.617 Y7.604 E86.15525
G1 X6.701 Y7.979 E86.18488
G1 X5.922 Y8.248 E86.20955
G1 X5.041 Y8.521 E86.23716
G1 X3.878 Y8.807 E86.27301
G1 X2.930 Y9.013 E86.30205
G1 X1.964 Y9.179 E86.33139
G1 X0.991 Y9.275 E86.36065
G1 X0.006 Y9.309 E86.39016
G1 X-0.979 Y9.274 E86.41966
G1 X-1.678 Y9.206 E86.44068
G1 X-2.696 Y9.050 E86.47151
G1 X-3.740 Y8.833 E86.50343
G1 X-4.790 Y8.586 E86.53572
G1 X-5.744 Y8.307 E86.56547
G1 X-6.688 Y7.978 E86.59540
G1 X-7.612 Y7.600 E86.62528
G1 X-8.405 Y7.210 E86.65173
G1 X-8.649 Y7.076 E86.66007
G1 X-9.076 Y6.745 E86.67624
G1 X-9.046 Y6.640 E86.67951
G1 X-9.494 Y6.246 E86.69737
G1 X-9.974 Y5.924 E86.71467
G1 X-10.295 Y5.810 E86.72487
G1 X-10.758 Y5.476 E86.74196
G1 X-11.353 Y4.837 E86.76809
G1 X-11.595 Y4.565 E86.77899
G1 X-11.896 Y4.132 E86.79478
G1 X-12.288 Y3.517 E86.81661
G1 X-12.673 Y2.514 E86.84877
G1 X-12.800 Y1.545 E86.87802
G1 X-12.685 Y0.652 E86.90497
G1 X-12.675 Y0.577 E86.90724
G1 X-12.289 Y-0.426 E86.93941
G1 X-11.896 Y-1.041 E86.96126
G1 X-11.593 Y-1.479 E86.97720
G1 X-11.074 Y-2.060 E87.00052
G1 X-10.758 Y-2.385 E87.01409
G1 X-10.296 Y-2.719 E87.03115
G1 X-9.975 Y-2.833 E87.04135
G1 X-9.495 Y-3.155 E87.05865
G1 X-9.047 Y-3.549 E87.07651
G1 X-9.076 Y-3.655 E87.07980
G1 X-8.647 Y-3.987 E87.09604
G1 X-7.608 Y-4.513 E87.13090
G1 X-7.114 Y-4.714 E87.14686
G1 X-6.682 Y-4.893 E87.16086
G1 X-5.911 Y-5.158 E87.18526
G1 X-5.029 Y-5.431 E87.21290
G1 X-3.865 Y-5.718 E87.24879
G1 X-2.918 Y-5.923 E87.27779
G1 X-1.951 Y-6.089 E87.30716
G1 X-0.978 Y-6.185 E87.33643
G1 X0.006 Y-6.219 E87.36590
G1 X0.992 Y-6.184 E87.39544
G1 X1.682 Y-6.117 E87.41619
G1 X2.715 Y-5.960 E87.44747
G1 X3.753 Y-5.744 E87.47920
G1 X4.803 Y-5.496 E87.51150
G1 X5.754 Y-5.217 E87.54117
G1 X6.699 Y-4.889 E87.57111
G1 X7.621 Y-4.510 E87.60095
G1 X8.414 Y-4.120 E87.62740
G1 X8.656 Y-3.988 E87.63565
G1 X9.084 Y-3.656 E87.65187
G1 X9.053 Y-3.550 E87.65517
G1 X9.502 Y-3.156 E87.67306
G1 X9.982 Y-2.834 E87.69036
G1 X10.303 Y-2.720 E87.70055
G1 X10.763 Y-2.388 E87.71754
G1 X11.359 Y-1.746 E87.74376
G1 X11.602 Y-1.476 E87.75463
G1 X11.902 Y-1.042 E87.77042
G0 F9000 X11.346 Y-0.881
;TYPE:FILL
G1 F3060 X10.746 Y-0.564 E87.79089
G1 X10.974 Y-1.358 E87.81117
G1 X10.266 Y-1.215 E87.83025
G1 X10.422 Y-1.936 E87.84819
G1 X9.730 Y-1.810 E87.86514
G1 X9.733 Y-2.379 E87.87928
G1 X9.141 Y-2.353 E87.89005
G1 X9.055 Y-2.833 E87.89921
G1 X8.436 Y-2.779 E87.91037
G1 X8.474 Y-3.383 E87.92581
G1 X7.651 Y-3.125 E87.94731
G1 X7.786 Y-3.826 E87.96900
G1 X6.929 Y-3.535 E87.98959
G1 X7.006 Y-4.178 E88.00897
G1 X6.267 Y-4.005 E88.02346
G1 X6.190 Y-4.493 E88.03732
G1 X5.433 Y-4.301 E88.05135
G1 X5.340 Y-4.775 E88.06577
G1 X4.560 Y-4.560 E88.08012
G1 X4.456 Y-5.022 E88.09483
G1 X3.830 Y-4.962 E88.10914
G1 X3.370 Y-5.067 E88.12329
G1 X2.908 Y-5.171 E88.13704
G1 X2.433 Y-5.262 E88.15087
G1 X1.950 Y-5.344 E88.16451
G1 X1.449 Y-5.408 E88.17849
G1 X0.932 Y-5.457 E88.19280
G1 X0.388 Y-5.479 E88.20783
G1 X-0.168 Y-5.488 E88.22298
G1 X-0.755 Y-5.466 E88.23911
G1 X-1.371 Y-5.416 E88.25627
G1 X-2.021 Y-5.331 E88.27486
G1 X-2.707 Y-5.210 E88.29524
G1 X-3.431 Y-5.053 E88.31731
G1 X-4.084 Y-4.683 E88.33978
G0 F9000 X-4.273 Y-5.060
G1 F3060 X-4.862 Y-4.471 E88.36471
G0 F9000 X-5.035 Y-4.864
G1 F3060 X-5.674 Y-4.224 E88.39178
G0 F9000 X-5.865 Y-4.599
G1 F3060 X-6.940 Y-3.524 E88.43729
G0 F9000 X-6.763 Y-4.267
G1 F3060 X-8.147 Y-2.883 E88.49588
G0 F9000 X-7.770 Y-3.826
G1 F3060 X-12.045 Y0.449 E88.67685
G0 F9000 X-12.208 Y1.177
G1 F3060 X-11.018 Y-0.012 E88.72721
G0 F9000 X-11.489 Y-0.673
G1 F3060 X-9.861 Y-2.300 E88.79611
G0 F9000 X-11.313 Y0.847
G1 F3060 X-12.226 Y1.761 E88.83478
G0 F9000 X-12.160 Y2.261
G1 F3060 X-11.414 Y1.514 E88.86638
G0 F9000 X-11.348 Y2.014
G1 F3060 X-12.025 Y2.691 E88.89504
G0 F9000 X-11.868 Y3.100
G1 F3060 X-11.270 Y2.502 E88.92036
G0 F9000 X-11.102 Y2.900
G1 F3060 X-11.672 Y3.469 E88.94446
G0 F9000 X-11.446 Y3.809
G1 F3060 X-10.835 Y3.481 E88.96605
G1 X-11.093 Y4.304 E88.98658
G1 X-10.375 Y4.152 E89.00635
G1 X-10.555 Y4.898 E89.02490
G1 X-9.861 Y4.769 E89.04239
G1 X-9.897 Y5.371 E89.05836
G1 X-9.276 Y5.316 E89.07003
G1 X-9.199 Y5.805 E89.07984
G1 X-8.617 Y5.788 E89.09000
G1 X-8.586 Y6.324 E89.10269
G1 X-7.822 Y6.125 E89.12065
G1 X-7.958 Y6.827 E89.14238
G1 X-7.093 Y6.527 E89.16334
G1 X-7.189 Y7.189 E89.18352
G1 X-6.400 Y6.965 E89.20199
G1 X-6.379 Y7.510 E89.21628
G1 X-5.628 Y7.325 E89.23029
G1 X-5.535 Y7.798 E89.24439
G1 X-4.762 Y7.590 E89.25871
G1 X-4.659 Y8.053 E89.27308
G1 X-3.869 Y7.829 E89.28752
G1 X-3.748 Y8.274 E89.30160
G1 X-3.120 Y8.211 E89.31554
G1 X-2.655 Y8.312 E89.32918
G1 X-2.171 Y8.394 E89.34310
G1 X-1.684 Y8.472 E89.35665
G1 X-1.171 Y8.525 E89.37100
G1 X-0.640 Y8.560 E89.38566
G1 X-0.094 Y8.579 E89.40066
G1 X0.483 Y8.566 E89.41673
G1 X1.078 Y8.537 E89.43300
G1 X1.711 Y8.469 E89.45092
G1 X2.382 Y8.364 E89.47043
G1 X3.090 Y8.222 E89.49140
G1 X3.730 Y7.865 E89.51334
G0 F9000 X3.923 Y8.238
G1 F3060 X4.498 Y7.663 E89.53768
G0 F9000 X4.673 Y8.054
G1 F3060 X5.289 Y7.438 E89.56376
G0 F9000 X5.470 Y7.822
G1 F3060 X6.146 Y7.146 E89.59237
G0 F9000 X6.320 Y7.538
G1 F3060 X7.633 Y6.225 E89.64796
G0 F9000 X8.395 Y6.595
G1 F3060 X8.459 Y6.530 E89.65069
G0 F9000 X8.637 Y5.787
G1 F3060 X7.259 Y7.165 E89.70902
G0 F9000 X9.179 Y5.811
G1 F3060 X11.866 Y3.123 E89.82279
G0 F9000 X11.216 Y2.643
G1 F3060 X12.254 Y1.604 E89.86676
G0 F9000 X12.202 Y1.091
G1 F3060 X11.365 Y1.928 E89.90219
G0 F9000 X11.392 Y1.335
G1 F3060 X12.114 Y0.613 E89.93275
G0 F9000 X11.957 Y0.204
G1 F3060 X11.317 Y0.844 E89.95985
G0 F9000 X11.196 Y0.400
G1 F3060 X11.797 Y-0.200 E89.98527
G0 F9000 X11.571 Y-0.540
G1 F3060 X11.029 Y0.001 E90.00819
G0 F9000 X12.170 Y2.254
G1 F3060 X10.667 Y3.757 E90.07182
;LAYER:4
G0 F9000 X11.263 Y4.661 Z1.100
;TYPE:WALL-INNER
G1 F3300 X10.940 Y5.023 E90.08634
G1 X10.574 Y5.291 E90.09992
G1 X10.277 Y5.405 E90.10944
G1 X9.768 Y5.771 E90.12821
G1 X9.131 Y6.360 E90.15418
G1 X9.167 Y6.468 E90.15759
G1 X9.058 Y6.561 E90.16188
G1 X8.316 Y6.989 E90.18752
G1 X7.453 Y7.414 E90.21631
G1 X6.664 Y7.736 E90.24182
G1 X6.181 Y7.910 E90.25719
G1 X5.646 Y8.078 E90.27398
G1 X4.737 Y8.328 E90.30220
G1 X3.787 Y8.554 E90.33143
G1 X2.849 Y8.758 E90.36016
G1 X1.916 Y8.918 E90.38850
G1 X0.967 Y9.013 E90.41705
G1 X0.006 Y9.045 E90.44583
G1 X-0.958 Y9.012 E90.47470
G1 X-1.479 Y8.961 E90.49037
G1 X-1.905 Y8.917 E90.50319
G1 X-2.461 Y8.822 E90.52008
G1 X-3.498 Y8.614 E90.55174
G1 X-4.513 Y8.378 E90.58293
G1 X-5.572 Y8.095 E90.61574
G1 X-6.182 Y7.907 E90.63485
G1 X-6.649 Y7.739 E90.64971
G1 X-7.437 Y7.417 E90.67519
G1 X-8.320 Y6.982 E90.70465
G1 X-9.032 Y6.573 E90.72923
G1 X-9.161 Y6.460 E90.73437
G1 X-9.126 Y6.347 E90.73791
G1 X-9.809 Y5.739 E90.76528
G1 X-10.267 Y5.405 E90.78225
G1 X-10.569 Y5.289 E90.79193
G1 X-10.929 Y5.028 E90.80524
G1 X-11.602 Y4.274 E90.83550
G1 X-11.981 Y3.701 E90.85606
G1 X-12.252 Y3.271 E90.87128
G1 X-12.517 Y2.547 E90.89435
G1 X-12.574 Y2.391 E90.89933
G1 X-12.684 Y1.546 E90.92483
G1 X-12.574 Y0.700 E90.95037
G1 X-12.323 Y-0.003 E90.97272
G1 X-12.257 Y-0.176 E90.97826
G1 X-11.979 Y-0.611 E90.99371
G1 X-11.649 Y-1.127 E91.01205
G1 X-11.256 Y-1.571 E91.02980
G1 X-10.932 Y-1.935 E91.04438
G1 X-10.569 Y-2.199 E91.05782
G1 X-10.268 Y-2.315 E91.06748
G1 X-9.762 Y-2.680 E91.08615
G1 X-9.125 Y-3.267 E91.11208
G1 X-9.158 Y-3.371 E91.11535
G1 X-9.033 Y-3.482 E91.12035
G1 X-8.315 Y-3.895 E91.14515
G1 X-7.449 Y-4.322 E91.17405
G1 X-6.643 Y-4.651 E91.20011
G1 X-5.643 Y-4.985 E91.23167
G1 X-4.711 Y-5.241 E91.26060
G1 X-3.774 Y-5.465 E91.28944
G1 X-2.833 Y-5.670 E91.31827
G1 X-1.903 Y-5.828 E91.34650
G1 X-0.954 Y-5.923 E91.37505
G1 X0.006 Y-5.955 E91.40381
G1 X0.971 Y-5.922 E91.43271
G1 X1.492 Y-5.871 E91.44838
G1 X1.906 Y-5.828 E91.46084
G1 X2.489 Y-5.730 E91.47854
G1 X3.511 Y-5.525 E91.50974
G1 X4.526 Y-5.288 E91.54094
G1 X5.572 Y-5.008 E91.57335
G1 X6.208 Y-4.813 E91.59326
G1 X7.450 Y-4.325 E91.63321
G1 X8.322 Y-3.896 E91.66230
G1 X9.040 Y-3.481 E91.68712
G1 X9.167 Y-3.370 E91.69217
G1 X9.132 Y-3.260 E91.69563
G1 X9.815 Y-2.649 E91.72306
G1 X10.275 Y-2.315 E91.74008
G1 X10.577 Y-2.199 E91.74976
G1 X10.936 Y-1.938 E91.76305
G1 X11.592 Y-1.202 E91.79256
G1 X11.986 Y-0.611 E91.81382
G1 X12.259 Y-0.182 E91.82904
G1 X12.523 Y0.539 E91.85203
G1 X12.580 Y0.699 E91.85711
G1 X12.690 Y1.546 E91.88268
G1 X12.580 Y2.391 E91.90819
G1 X12.330 Y3.093 E91.93049
G1 X12.264 Y3.266 E91.93604
G1 X11.984 Y3.701 E91.95152
G1 X11.657 Y4.214 E91.96973
G1 X11.263 Y4.661 E91.98757
G0 F9000 X10.468 Y5.760
;TYPE:WALL-OUTER
G1 F1980 X10.021 Y6.081 E92.00404
G1 X9.591 Y6.479 E92.02158
G1 X9.628 Y6.591 E92.02511
G1 X9.278 Y6.896 E92.03901
G1 X8.508 Y7.340 E92.06562
G1 X7.620 Y7.779 E92.09527
G1 X6.805 Y8.111 E92.12161
G1 X6.324 Y8.284 E92.13691
G1 X5.762 Y8.460 E92.15454
G1 X4.830 Y8.717 E92.18348
G1 X3.880 Y8.943 E92.21271
G1 X2.930 Y9.150 E92.24182
G1 X1.964 Y9.316 E92.27116
G1 X0.990 Y9.413 E92.30046
G1 X0.006 Y9.446 E92.32993
G1 X-0.979 Y9.412 E92.35943
G1 X-1.520 Y9.359 E92.37570
G1 X-1.953 Y9.314 E92.38873
G1 X-2.542 Y9.214 E92.40662
G1 X-3.577 Y9.006 E92.43822
G1 X-4.623 Y8.763 E92.47036
G1 X-5.671 Y8.483 E92.50284
G1 X-6.309 Y8.286 E92.52282
G1 X-6.787 Y8.114 E92.53803
G1 X-7.603 Y7.780 E92.56442
G1 X-8.510 Y7.334 E92.59468
G1 X-9.268 Y6.899 E92.62084
G1 X-9.619 Y6.589 E92.63486
G1 X-9.584 Y6.475 E92.63843
G1 X-10.060 Y6.051 E92.65751
G1 X-10.460 Y5.760 E92.67232
G1 X-10.761 Y5.644 E92.68197
G1 X-11.175 Y5.343 E92.69729
G1 X-11.199 Y5.326 E92.69817
G1 X-11.909 Y4.531 E92.73008
G1 X-12.318 Y3.917 E92.75216
G1 X-12.614 Y3.448 E92.76877
G1 X-12.966 Y2.481 E92.79957
G1 X-13.088 Y1.546 E92.82780
G1 X-12.966 Y0.604 E92.85623
G1 X-12.697 Y-0.147 E92.88011
G1 X-12.616 Y-0.356 E92.88682
G1 X-11.972 Y-1.365 E92.92265
G1 X-11.201 Y-2.233 E92.95740
G1 X-10.761 Y-2.554 E92.97371
G1 X-10.460 Y-2.670 E92.98336
G1 X-10.015 Y-2.991 E92.99979
G1 X-9.584 Y-3.388 E93.01733
G1 X-9.619 Y-3.499 E93.02081
G1 X-9.269 Y-3.808 E93.03479
G1 X-8.498 Y-4.251 E93.06140
G1 X-7.615 Y-4.687 E93.09088
G1 X-6.786 Y-5.025 E93.11768
G1 X-6.313 Y-5.195 E93.13273
G1 X-5.749 Y-5.371 E93.15041
G1 X-4.818 Y-5.627 E93.17932
G1 X-3.867 Y-5.854 E93.20858
G1 X-2.918 Y-6.061 E93.23766
G1 X-1.952 Y-6.226 E93.26699
G1 X-0.977 Y-6.323 E93.29632
G1 X0.006 Y-6.356 E93.32577
G1 X0.992 Y-6.322 E93.35530
G1 X1.533 Y-6.269 E93.37157
G1 X1.969 Y-6.224 E93.38469
G1 X2.550 Y-6.126 E93.40233
G1 X3.590 Y-5.917 E93.43408
G1 X4.636 Y-5.673 E93.46623
G1 X5.679 Y-5.394 E93.49855
G1 X6.320 Y-5.197 E93.51863
G1 X6.796 Y-5.026 E93.53377
G1 X7.611 Y-4.691 E93.56014
G1 X8.519 Y-4.244 E93.59044
G1 X9.274 Y-3.809 E93.61652
G1 X9.627 Y-3.499 E93.63058
G1 X9.591 Y-3.386 E93.63413
G1 X10.066 Y-2.961 E93.65321
G1 X10.468 Y-2.670 E93.66807
G1 X10.769 Y-2.554 E93.67773
G1 X11.182 Y-2.253 E93.69302
G1 X11.206 Y-2.236 E93.69390
G1 X11.910 Y-1.447 E93.72556
G1 X12.322 Y-0.828 E93.74781
G1 X12.621 Y-0.358 E93.76449
G1 X12.900 Y0.406 E93.78884
G1 X12.972 Y0.604 E93.79514
G1 X13.094 Y1.546 E93.82358
G1 X12.972 Y2.485 E93.85192
G1 X12.704 Y3.237 E93.87582
G1 X12.622 Y3.447 E93.88257
G1 X11.977 Y4.457 E93.91844
G1 X11.211 Y5.321 E93.95300
G1 X10.769 Y5.644 E93.96939
G1 X10.468 Y5.760 E93.97905
G0 F9000 X10.139 Y5.330
;TYPE:FILL
G1 F3300 X10.027 Y4.936 E93.98965
G1 X10.688 Y5.031 E94.00479
G1 X10.568 Y4.345 E94.02194
G1 X11.250 Y4.461 E94.04001
G1 X11.038 Y3.684 E94.05942
G1 X11.741 Y3.822 E94.07958
G1 X11.334 Y3.131 E94.10358
G0 F9000 X11.496 Y2.728
G1 F3300 X12.073 Y3.305 E94.12801
G0 F9000 X12.245 Y2.911
G1 F3300 X11.627 Y2.293 E94.15417
G0 F9000 X11.696 Y1.797
G1 F3300 X12.394 Y2.495 E94.18372
G0 F9000 X12.488 Y2.023
G1 F3300 X11.687 Y1.221 E94.21765
G0 F9000 X11.570 Y0.539
G1 F3300 X12.546 Y1.515 E94.25897
G0 F9000 X12.461 Y0.864
G1 F3300 X11.113 Y-0.482 E94.31599
G0 F9000 X12.184 Y0.021
G1 F3300 X8.572 Y-3.589 E94.46885
G0 F9000 X7.607 Y-3.423
G1 F3300 X7.260 Y-3.770 E94.48354
G0 F9000 X7.247 Y-3.783
G1 F3300 X6.472 Y-4.558 E94.51635
G0 F9000 X6.267 Y-4.197
G1 F3300 X5.617 Y-4.847 E94.54387
G0 F9000 X5.420 Y-4.478
G1 F3300 X4.841 Y-5.057 E94.56838
G0 F9000 X4.618 Y-4.715
G1 F3300 X3.967 Y-5.082 E94.59081
G1 X3.227 Y-5.256 E94.61157
G1 X2.514 Y-5.404 E94.63075
G1 X1.829 Y-5.523 E94.64865
G1 X1.196 Y-5.591 E94.66452
G1 X0.594 Y-5.627 E94.67936
G1 X0.013 Y-5.643 E94.69385
G1 X-0.536 Y-5.627 E94.70745
G1 X-1.076 Y-5.601 E94.72117
G1 X-1.588 Y-5.548 E94.73399
G1 X-2.086 Y-5.480 E94.74671
G1 X-2.565 Y-5.394 E94.75924
G1 X-3.036 Y-5.298 E94.77186
G1 X-3.496 Y-5.194 E94.78453
G1 X-3.952 Y-5.083 E94.79735
G1 X-4.403 Y-4.969 E94.81041
G1 X-4.852 Y-4.852 E94.82384
G1 X-5.453 Y-4.887 E94.83723
G1 X-5.565 Y-4.434 E94.85088
G1 X-6.310 Y-4.612 E94.86429
G1 X-6.406 Y-4.144 E94.87795
G1 X-7.129 Y-4.300 E94.89123
G1 X-7.157 Y-3.763 E94.90467
G1 X-7.902 Y-3.942 E94.92199
G1 X-7.806 Y-3.280 E94.94116
G1 X-8.638 Y-3.547 E94.96163
G1 X-8.507 Y-2.851 E94.98230
G1 X-9.214 Y-2.991 E94.99837
G1 X-9.276 Y-2.487 E95.00920
G1 X-9.819 Y-2.465 E95.01807
G1 X-9.891 Y-1.971 E95.02793
G1 X-10.518 Y-2.033 E95.04085
G1 X-10.443 Y-1.392 E95.05713
G1 X-11.123 Y-1.506 E95.07472
G1 X-10.924 Y-0.742 E95.09357
G1 X-11.633 Y-0.885 E95.11398
G1 X-11.334 Y-0.021 E95.13478
G1 X-11.965 Y-0.369 E95.15635
G0 F9000 X-12.170 Y-0.008
G1 F3300 X-11.580 Y0.581 E95.18130
G0 F9000 X-11.660 Y1.067
G1 F3300 X-12.320 Y0.407 E95.20924
G0 F9000 X-12.452 Y0.841
G1 F3300 X-11.723 Y1.569 E95.24008
G0 F9000 X-11.629 Y2.229
G1 F3300 X-12.517 Y1.342 E95.27765
G0 F9000 X-12.493 Y1.931
G1 F3300 X-11.361 Y3.063 E95.32557
G0 F9000 X-11.728 Y3.827
G1 F3300 X-10.323 Y5.232 E95.38505
G0 F9000 X-8.457 Y5.967
G1 F3300 X-6.968 Y7.456 E95.44809
G0 F9000 X-6.765 Y7.093
G1 F3300 X-6.063 Y7.795 E95.47780
G0 F9000 X-5.870 Y7.423
G1 F3300 X-5.261 Y8.032 E95.50358
G0 F9000 X-5.040 Y7.687
G1 F3300 X-4.377 Y8.066 E95.52690
G1 X-3.626 Y8.252 E95.54867
G1 X-2.899 Y8.413 E95.56851
G1 X-2.197 Y8.550 E95.58698
G1 X-1.537 Y8.644 E95.60389
G1 X-0.912 Y8.704 E95.61963
G1 X-0.323 Y8.726 E95.63410
G1 X0.243 Y8.729 E95.64824
G1 X0.789 Y8.708 E95.66190
G1 X1.314 Y8.668 E95.67502
G1 X1.824 Y8.612 E95.68785
G1 X2.309 Y8.531 E95.70014
G1 X2.787 Y8.444 E95.71279
G1 X3.250 Y8.341 E95.72521
G1 X3.710 Y8.236 E95.73800
G1 X4.163 Y8.123 E95.75089
G1 X4.615 Y8.009 E95.76421
G1 X5.219 Y8.048 E95.77762
G1 X5.337 Y7.599 E95.79121
G1 X6.089 Y7.786 E95.80483
G1 X6.178 Y7.309 E95.81881
G1 X6.915 Y7.481 E95.83275
G1 X6.992 Y6.991 E95.84618
G1 X7.700 Y7.135 E95.85992
G1 X7.629 Y6.498 E95.87805
G1 X8.447 Y6.749 E95.89796
G1 X8.316 Y6.053 E95.91874
G1 X9.096 Y6.268 E95.93938
G1 X9.076 Y5.682 E95.95294
G1 X9.656 Y5.696 E95.96289
G1 X9.596 Y5.354 E95.97328
G0 F9000 X8.921 Y-2.674
G1 F3300 X7.404 Y-4.191 E96.03750
G0 F9000 X-8.014 Y6.976
G1 F3300 X-12.323 Y2.667 E96.21991
;LAYER:5
G0 F9000 X-12.377 Y3.520 Z1.300
;TYPE:WALL-INNER
G1 F3300 X-12.561 Y3.207 E96.23078
G1 X-12.865 Y2.354 E96.25789
G1 X-12.958 Y1.637 E96.27953
G1 X-12.970 Y1.545 E96.28231
G1 X-12.865 Y0.732 E96.30685
G1 X-12.564 Y-0.113 E96.33370
G1 X-12.171 Y-0.757 E96.35628
G1 X-12.005 Y-1.014 E96.36544
G1 X-11.594 Y-1.509 E96.38470
G1 X-11.345 Y-1.787 E96.39587
G1 X-11.019 Y-2.036 E96.40815
G1 X-10.731 Y-2.150 E96.41742
G1 X-10.224 Y-2.528 E96.43635
G1 X-9.650 Y-3.122 E96.46108
G1 X-9.680 Y-3.216 E96.46403
G1 X-9.575 Y-3.314 E96.46833
G1 X-9.179 Y-3.575 E96.48253
G1 X-8.318 Y-4.072 E96.51229
G1 X-7.537 Y-4.455 E96.53833
G1 X-6.553 Y-4.839 E96.56994
G1 X-5.651 Y-5.122 E96.59824
G1 X-4.720 Y-5.376 E96.62713
G1 X-3.774 Y-5.602 E96.65624
G1 X-2.853 Y-5.803 E96.68446
G1 X-2.314 Y-5.895 E96.70083
G1 X-1.897 Y-5.967 E96.71350
G1 X-1.326 Y-6.023 E96.73067
G1 X-0.350 Y-6.080 E96.75994
G1 X0.007 Y-6.093 E96.77063
G1 X0.969 Y-6.059 E96.79945
G1 X1.914 Y-5.966 E96.82787
G1 X2.838 Y-5.807 E96.85594
G1 X3.344 Y-5.698 E96.87143
G1 X4.379 Y-5.461 E96.90321
G1 X5.389 Y-5.197 E96.93446
G1 X6.459 Y-4.872 E96.96794
G1 X7.222 Y-4.596 E96.99223
G1 X8.330 Y-4.068 E97.02897
G1 X9.181 Y-3.577 E97.05838
G1 X9.585 Y-3.313 E97.07282
G1 X9.686 Y-3.220 E97.07693
G1 X9.655 Y-3.127 E97.07987
G1 X10.230 Y-2.528 E97.10472
G1 X10.739 Y-2.150 E97.12370
G1 X11.024 Y-2.038 E97.13287
G1 X11.343 Y-1.794 E97.14489
G1 X11.852 Y-1.203 E97.16824
G1 X12.006 Y-1.020 E97.17540
G1 X12.372 Y-0.448 E97.19572
G1 X12.567 Y-0.117 E97.20722
G1 X12.870 Y0.732 E97.23421
G1 X12.963 Y1.455 E97.25603
G1 X12.975 Y1.546 E97.25877
G1 X12.870 Y2.357 E97.28325
G1 X12.570 Y3.201 E97.31007
G1 X12.175 Y3.848 E97.33276
G1 X12.009 Y4.106 E97.34194
G1 X11.603 Y4.595 E97.36097
G1 X11.351 Y4.877 E97.37229
G1 X11.025 Y5.126 E97.38457
G1 X10.738 Y5.240 E97.39381
G1 X10.230 Y5.618 E97.41277
G1 X9.656 Y6.216 E97.43758
G1 X9.687 Y6.308 E97.44048
G1 X9.585 Y6.402 E97.44464
G1 X9.177 Y6.670 E97.45925
G1 X8.331 Y7.160 E97.48851
G1 X7.546 Y7.545 E97.51469
G1 X6.564 Y7.928 E97.54624
G1 X5.662 Y8.212 E97.57455
G1 X4.732 Y8.466 E97.60340
G1 X3.787 Y8.691 E97.63248
G1 X2.858 Y8.894 E97.66095
G1 X2.336 Y8.982 E97.67679
G1 X1.326 Y9.114 E97.70728
G1 X0.362 Y9.170 E97.73619
G1 X0.005 Y9.183 E97.74688
G1 X-0.956 Y9.149 E97.77567
G1 X-1.901 Y9.056 E97.80409
G1 X-2.826 Y8.897 E97.83219
G1 X-3.332 Y8.788 E97.84768
G1 X-4.366 Y8.551 E97.87944
G1 X-5.377 Y8.286 E97.91072
G1 X-6.457 Y7.958 E97.94451
G1 X-7.209 Y7.687 E97.96844
G1 X-8.327 Y7.156 E98.00549
G1 X-9.172 Y6.670 E98.03466
G1 X-9.576 Y6.404 E98.04914
G1 X-9.680 Y6.308 E98.05338
G1 X-9.649 Y6.213 E98.05637
G1 X-10.224 Y5.618 E98.08114
G1 X-10.732 Y5.240 E98.10010
G1 X-11.014 Y5.129 E98.10917
G1 X-11.342 Y4.878 E98.12153
G1 X-11.847 Y4.293 E98.14466
G1 X-12.000 Y4.110 E98.15180
G1 X-12.377 Y3.520 E98.17276
G0 F9000 X-12.714 Y3.735
;TYPE:WALL-OUTER
G1 F1980 X-12.925 Y3.378 E98.18518
G1 X-13.257 Y2.448 E98.21474
G1 X-13.374 Y1.546 E98.24196
G1 X-13.257 Y0.639 E98.26934
G1 X-12.928 Y-0.283 E98.29864
G1 X-12.504 Y-0.978 E98.32301
G1 X-12.329 Y-1.250 E98.33269
G1 X-11.902 Y-1.764 E98.35270
G1 X-11.618 Y-2.082 E98.36546
G1 X-11.218 Y-2.388 E98.38053
G1 X-10.928 Y-2.503 E98.38987
G1 X-10.489 Y-2.829 E98.40624
G1 X-10.105 Y-3.227 E98.42280
G1 X-10.140 Y-3.335 E98.42619
G1 X-9.826 Y-3.628 E98.43905
G1 X-9.378 Y-3.923 E98.45511
G1 X-8.514 Y-4.421 E98.48496
G1 X-7.692 Y-4.824 E98.51236
G1 X-6.697 Y-5.212 E98.54433
G1 X-5.749 Y-5.510 E98.57408
G1 X-4.818 Y-5.764 E98.60297
G1 X-3.867 Y-5.991 E98.63223
G1 X-2.916 Y-6.199 E98.66137
G1 X-1.954 Y-6.363 E98.69058
G1 X-0.977 Y-6.460 E98.71997
G1 X0.005 Y-6.494 E98.74939
G1 X0.990 Y-6.459 E98.77889
G1 X1.964 Y-6.363 E98.80819
G1 X2.922 Y-6.198 E98.83729
G1 X3.428 Y-6.089 E98.85278
G1 X4.468 Y-5.851 E98.88472
G1 X5.513 Y-5.578 E98.91705
G1 X6.575 Y-5.255 E98.95028
G1 X7.376 Y-4.965 E98.97578
G1 X8.524 Y-4.419 E99.01383
G1 X9.384 Y-3.923 E99.04355
G1 X9.830 Y-3.631 E99.05951
G1 X10.148 Y-3.340 E99.07241
G1 X10.111 Y-3.230 E99.07588
G1 X10.495 Y-2.829 E99.09250
G1 X10.935 Y-2.503 E99.10889
G1 X11.223 Y-2.389 E99.11817
G1 X11.618 Y-2.087 E99.13305
G1 X12.155 Y-1.464 E99.15767
G1 X12.326 Y-1.261 E99.16562
G1 X12.720 Y-0.645 E99.18750
G1 X12.931 Y-0.287 E99.19994
G1 X13.108 Y0.204 E99.21557
G1 X13.262 Y0.642 E99.22947
G1 X13.379 Y1.546 E99.25675
G1 X13.262 Y2.450 E99.28404
G1 X12.934 Y3.373 E99.31336
G1 X12.509 Y4.068 E99.33775
G1 X12.335 Y4.340 E99.34741
G1 X11.908 Y4.854 E99.36741
G1 X11.626 Y5.169 E99.38007
G1 X11.222 Y5.479 E99.39531
G1 X10.935 Y5.593 E99.40456
G1 X10.495 Y5.919 E99.42095
G1 X10.112 Y6.319 E99.43753
G1 X10.148 Y6.426 E99.44091
G1 X9.834 Y6.718 E99.45374
G1 X9.387 Y7.011 E99.46974
G1 X8.523 Y7.511 E99.49962
G1 X7.703 Y7.913 E99.52696
G1 X6.708 Y8.301 E99.55893
G1 X5.762 Y8.599 E99.58862
G1 X4.830 Y8.854 E99.61754
G1 X3.880 Y9.080 E99.64677
G1 X2.927 Y9.289 E99.67598
G1 X2.397 Y9.378 E99.69206
G1 X1.378 Y9.511 E99.72283
G1 X0.007 Y9.584 E99.76392
G1 X-0.977 Y9.549 E99.79340
G1 X-1.951 Y9.453 E99.82269
G1 X-2.910 Y9.288 E99.85182
G1 X-3.416 Y9.179 E99.86732
G1 X-4.455 Y8.941 E99.89922
G1 X-5.502 Y8.667 E99.93162
G1 X-6.563 Y8.344 E99.96482
G1 X-7.366 Y8.055 E99.99037
G1 X-8.515 Y7.509 E100.02845
G1 X-9.381 Y7.011 E100.05835
G1 X-9.826 Y6.718 E100.07430
G1 X-10.140 Y6.430 E100.08705
G1 X-10.104 Y6.318 E100.09057
G1 X-10.489 Y5.919 E100.10717
G1 X-10.928 Y5.593 E100.12354
G1 X-11.214 Y5.480 E100.13275
G1 X-11.617 Y5.172 E100.14793
G1 X-12.150 Y4.554 E100.17236
G1 X-12.320 Y4.351 E100.18028
G1 X-12.714 Y3.735 E100.20217
G0 F9000 X-12.241 Y3.473
;TYPE:FILL
G1 F3300 X-11.634 Y3.149 E100.22447
G1 X-11.900 Y3.981 E100.24401
G1 X-11.216 Y3.862 E100.26308
G1 X-11.391 Y4.603 E100.28092
G1 X-10.732 Y4.510 E100.29750
G1 X-10.754 Y5.097 E100.31227
G1 X-10.178 Y5.087 E100.32262
G1 X-10.092 Y5.566 E100.33107
G1 X-9.518 Y5.558 E100.34090
G1 X-9.553 Y6.159 E100.35541
G1 X-8.789 Y5.961 E100.37549
G1 X-8.917 Y6.655 E100.39583
G1 X-8.146 Y6.449 E100.41422
G1 X-8.191 Y7.059 E100.43070
G1 X-7.515 Y6.949 E100.44315
G1 X-7.427 Y7.426 E100.45571
G1 X-6.722 Y7.288 E100.46888
G1 X-6.618 Y7.749 E100.48172
G1 X-5.892 Y7.589 E100.49474
G1 X-5.760 Y8.023 E100.50723
G1 X-5.174 Y8.003 E100.51969
G1 X-4.732 Y8.126 E100.53199
G1 X-4.285 Y8.245 E100.54389
G1 X-3.829 Y8.355 E100.55569
G1 X-3.373 Y8.464 E100.56706
G1 X-2.910 Y8.567 E100.57845
G1 X-2.432 Y8.655 E100.59042
G1 X-1.947 Y8.735 E100.60263
G1 X-1.439 Y8.793 E100.61545
G1 X-0.918 Y8.837 E100.62852
G1 X-0.377 Y8.862 E100.64205
G1 X0.181 Y8.869 E100.65575
G1 X0.773 Y8.842 E100.67025
G1 X1.383 Y8.797 E100.68499
G1 X2.023 Y8.724 E100.70023
G1 X2.701 Y8.611 E100.71684
G1 X3.420 Y8.458 E100.73505
G1 X4.161 Y8.282 E100.75420
G1 X4.928 Y8.081 E100.77485
G1 X5.622 Y7.671 E100.79898
G0 F9000 X5.855 Y8.003
G1 F3300 X6.462 Y7.397 E100.82465
G0 F9000 X6.699 Y7.725
G1 F3300 X7.429 Y6.995 E100.85556
G0 F9000 X7.657 Y7.333
G1 F3300 X9.349 Y5.641 E100.92718
G0 F9000 X8.869 Y6.686
G1 F3300 X12.457 Y3.099 E101.07905
G0 F9000 X11.870 Y2.554
G1 F3300 X12.826 Y1.598 E101.11952
G0 F9000 X12.773 Y1.085
G1 F3300 X11.998 Y1.861 E101.15235
G0 F9000 X12.006 Y1.286
G1 F3300 X12.679 Y0.613 E101.18084
G0 F9000 X12.530 Y0.197
G1 F3300 X11.937 Y0.790 E101.20595
G0 F9000 X11.803 Y0.359
G1 F3300 X12.249 Y-0.370 E101.22936
G1 X11.552 Y-0.238 E101.25038
G1 X11.793 Y-1.044 E101.26983
G1 X11.112 Y-0.930 E101.28828
G1 X11.262 Y-1.645 E101.30545
G1 X10.614 Y-1.562 E101.32094
G1 X10.588 Y-2.102 E101.33300
G1 X10.047 Y-2.127 E101.34228
G1 X9.959 Y-2.605 E101.35072
G1 X9.354 Y-2.565 E101.36206
G1 X9.413 Y-3.191 E101.37848
G1 X8.638 Y-2.981 E101.39879
G1 X8.753 Y-3.662 E101.41818
G1 X8.030 Y-3.505 E101.43567
G1 X8.019 Y-4.059 E101.44878
G1 X7.338 Y-3.944 E101.46118
G1 X7.249 Y-4.420 E101.47394
G1 X6.537 Y-4.274 E101.48704
G1 X6.426 Y-4.729 E101.49998
G1 X5.698 Y-4.567 E101.51276
G1 X5.563 Y-4.998 E101.52520
G1 X4.973 Y-4.973 E101.53779
G1 X4.530 Y-5.095 E101.54990
G1 X4.078 Y-5.209 E101.56186
G1 X3.621 Y-5.319 E101.57347
G1 X3.163 Y-5.426 E101.58473
G1 X2.694 Y-5.523 E101.59620
G1 X2.210 Y-5.604 E101.60832
G1 X1.716 Y-5.676 E101.62057
G1 X1.201 Y-5.726 E101.63355
G1 X0.671 Y-5.762 E101.64674
G1 X0.125 Y-5.782 E101.66028
G1 X-0.454 Y-5.767 E101.67480
G1 X-1.048 Y-5.739 E101.68908
G1 X-1.671 Y-5.682 E101.70439
G1 X-2.335 Y-5.583 E101.72107
G1 X-3.031 Y-5.453 E101.73824
G1 X-3.761 Y-5.289 E101.75660
G1 X-4.516 Y-5.099 E101.77659
G1 X-5.173 Y-4.725 E101.79922
G0 F9000 X-5.426 Y-5.038
G1 F3300 X-6.003 Y-4.461 E101.82365
G0 F9000 X-6.240 Y-4.790
G1 F3300 X-6.904 Y-4.126 E101.85175
G0 F9000 X-7.134 Y-4.461
G1 F3300 X-8.614 Y-2.981 E101.91441
G0 F9000 X-8.179 Y-3.983
G1 F3300 X-9.923 Y-2.238 E101.98826
G0 F9000 X-10.726 Y-2.001
G1 F3300 X-12.061 Y-0.666 E102.04477
G0 F9000 X-11.696 Y0.099
G1 F3300 X-12.782 Y1.185 E102.09075
G0 F9000 X-12.799 Y1.768
G1 F3300 X-11.947 Y0.916 E102.12681
G0 F9000 X-12.033 Y1.568
G1 F3300 X-12.734 Y2.269 E102.15649
G0 F9000 X-12.594 Y2.694
G1 F3300 X-11.963 Y2.064 E102.18318
G0 F9000 X-11.870 Y2.537
G1 F3300 X-12.445 Y3.111 E102.20750
G0 F9000 X-12.617 Y0.455
G1 F3300 X-10.588 Y-1.574 E102.29340
G0 F9000 X11.421 Y3.568
G1 F3300 X12.743 Y2.247 E102.34934
;LAYER:6
G0 F9000 X12.941 Y2.945 Z1.500
;TYPE:WALL-INNER
G1 F3300 X12.874 Y3.131 E102.35526
G1 X12.372 Y3.982 E102.38483
G1 X12.046 Y4.372 E102.40005
G1 X11.751 Y4.730 E102.41393
G1 X11.448 Y4.963 E102.42538
G1 X11.164 Y5.079 E102.43456
G1 X10.690 Y5.459 E102.45274
G1 X10.133 Y6.043 E102.47690
G1 X10.170 Y6.160 E102.48058
G1 X10.101 Y6.233 E102.48358
G1 X9.182 Y6.847 E102.51667
G1 X8.465 Y7.259 E102.54142
G1 X7.466 Y7.732 E102.57451
G1 X6.589 Y8.058 E102.60252
G1 X5.648 Y8.353 E102.63203
G1 X4.732 Y8.603 E102.66046
G1 X4.207 Y8.728 E102.67661
G1 X3.196 Y8.957 E102.70764
G1 X2.162 Y9.149 E102.73912
G1 X1.904 Y9.195 E102.74697
G1 X1.180 Y9.266 E102.76874
G1 X0.962 Y9.289 E102.77531
G1 X0.210 Y9.313 E102.79783
G1 X0.005 Y9.320 E102.80397
G1 X-0.954 Y9.288 E102.83269
G1 X-1.903 Y9.192 E102.86124
G1 X-2.832 Y9.033 E102.88946
G1 X-3.774 Y8.828 E102.91831
G1 X-4.725 Y8.601 E102.94758
G1 X-5.216 Y8.468 E102.96281
G1 X-6.256 Y8.159 E102.99529
G1 X-7.347 Y7.773 E103.02993
G1 X-8.069 Y7.461 E103.05347
G1 X-9.180 Y6.843 E103.09153
G1 X-9.905 Y6.365 E103.11752
G1 X-10.086 Y6.239 E103.12412
G1 X-10.159 Y6.162 E103.12730
G1 X-10.120 Y6.041 E103.13110
G1 X-10.714 Y5.436 E103.15648
G1 X-11.156 Y5.080 E103.17347
G1 X-11.444 Y4.962 E103.18279
G1 X-11.745 Y4.730 E103.19417
G1 X-12.352 Y4.002 E103.22254
G1 X-12.693 Y3.428 E103.24252
G1 X-12.867 Y3.133 E103.25278
G1 X-13.114 Y2.440 E103.27480
G1 X-13.148 Y2.334 E103.27813
G1 X-13.240 Y1.544 E103.30194
G1 X-13.152 Y0.775 E103.32511
G1 X-12.934 Y0.142 E103.34515
G1 X-12.868 Y-0.043 E103.35103
G1 X-12.388 Y-0.855 E103.37927
G1 X-12.039 Y-1.284 E103.39582
G1 X-11.742 Y-1.644 E103.40979
G1 X-11.447 Y-1.871 E103.42093
G1 X-11.157 Y-1.989 E103.43030
G1 X-10.684 Y-2.369 E103.44847
G1 X-10.126 Y-2.952 E103.47262
G1 X-10.162 Y-3.068 E103.47626
G1 X-10.089 Y-3.145 E103.47944
G1 X-9.184 Y-3.753 E103.51207
G1 X-8.452 Y-4.171 E103.53730
G1 X-7.467 Y-4.637 E103.56992
G1 X-6.558 Y-4.974 E103.59894
G1 X-5.643 Y-5.261 E103.62765
G1 X-4.706 Y-5.518 E103.65673
G1 X-4.196 Y-5.638 E103.67242
G1 X-3.165 Y-5.871 E103.70406
G1 X-2.829 Y-5.945 E103.71435
G1 X-2.152 Y-6.060 E103.73491
G1 X-1.167 Y-6.176 E103.76460
G1 X-0.949 Y-6.199 E103.77116
G1 X-0.197 Y-6.223 E103.79368
G1 X0.007 Y-6.230 E103.79979
G1 X0.967 Y-6.198 E103.82855
G1 X1.916 Y-6.102 E103.85710
G1 X2.849 Y-5.942 E103.88543
G1 X3.787 Y-5.739 E103.91416
G1 X4.732 Y-5.513 E103.94325
G1 X5.232 Y-5.377 E103.95876
G1 X6.278 Y-5.066 E103.99142
G1 X7.348 Y-4.686 E104.02541
G1 X8.078 Y-4.371 E104.04921
G1 X9.193 Y-3.749 E104.08743
G1 X9.901 Y-3.284 E104.11279
G1 X10.097 Y-3.148 E104.11993
G1 X10.167 Y-3.073 E104.12300
G1 X10.129 Y-2.957 E104.12665
G1 X10.689 Y-2.370 E104.15094
G1 X11.164 Y-1.989 E104.16917
G1 X11.448 Y-1.873 E104.17835
G1 X11.751 Y-1.641 E104.18977
G1 X12.360 Y-0.907 E104.21832
G1 X12.698 Y-0.341 E104.23806
G1 X12.870 Y-0.047 E104.24825
G1 X13.118 Y0.645 E104.27026
G1 X13.153 Y0.754 E104.27368
G1 X13.245 Y1.546 E104.29755
G1 X13.154 Y2.322 E104.32094
G1 X12.941 Y2.945 E104.34065
G0 F9000 X13.317 Y3.081
;TYPE:WALL-OUTER
G1 F1980 X13.236 Y3.304 E104.34775
G1 X12.721 Y4.179 E104.37814
G1 X12.692 Y4.225 E104.37977
G1 X12.353 Y4.628 E104.39553
G1 X12.028 Y5.022 E104.41082
G1 X11.652 Y5.312 E104.42504
G1 X11.369 Y5.428 E104.43419
G1 X10.961 Y5.754 E104.44982
G1 X10.585 Y6.148 E104.46613
G1 X10.621 Y6.264 E104.46976
G1 X10.359 Y6.542 E104.48120
G1 X9.395 Y7.186 E104.51590
G1 X8.657 Y7.610 E104.54138
G1 X7.617 Y8.103 E104.57583
G1 X6.708 Y8.440 E104.60485
G1 X5.762 Y8.736 E104.63452
G1 X4.830 Y8.991 E104.66345
G1 X4.300 Y9.117 E104.67975
G1 X3.269 Y9.350 E104.71139
G1 X2.230 Y9.543 E104.74303
G1 X1.962 Y9.591 E104.75118
G1 X1.221 Y9.664 E104.77347
G1 X0.988 Y9.688 E104.78048
G1 X0.007 Y9.721 E104.80986
G1 X-0.977 Y9.687 E104.83933
G1 X-1.951 Y9.590 E104.86863
G1 X-2.918 Y9.424 E104.89800
G1 X-3.867 Y9.218 E104.92707
G1 X-4.818 Y8.990 E104.95635
G1 X-5.322 Y8.853 E104.97198
G1 X-6.382 Y8.538 E105.00508
G1 X-7.480 Y8.150 E105.03994
G1 X-8.248 Y7.819 E105.06498
G1 X-9.389 Y7.184 E105.10406
G1 X-10.125 Y6.699 E105.13045
G1 X-10.349 Y6.543 E105.13862
G1 X-10.613 Y6.265 E105.15010
G1 X-10.575 Y6.148 E105.15378
G1 X-10.983 Y5.733 E105.17120
G1 X-11.361 Y5.428 E105.18574
G1 X-11.644 Y5.313 E105.19488
G1 X-12.023 Y5.021 E105.20920
G1 X-12.682 Y4.230 E105.24002
G1 X-13.231 Y3.304 E105.27225
G1 X-13.494 Y2.564 E105.29575
G1 X-13.540 Y2.418 E105.30034
G1 X-13.642 Y1.546 E105.32662
G1 X-13.547 Y0.716 E105.35162
G1 X-13.542 Y0.675 E105.35286
G1 X-13.311 Y0.007 E105.37402
G1 X-13.232 Y-0.213 E105.38102
G1 X-12.718 Y-1.084 E105.41129
G1 X-12.348 Y-1.539 E105.42885
G1 X-12.026 Y-1.930 E105.44401
G1 X-11.644 Y-2.223 E105.45842
G1 X-11.362 Y-2.338 E105.46754
G1 X-10.955 Y-2.664 E105.48314
G1 X-10.578 Y-3.058 E105.49947
G1 X-10.614 Y-3.174 E105.50310
G1 X-10.351 Y-3.452 E105.51456
G1 X-9.394 Y-4.093 E105.54904
G1 X-8.644 Y-4.522 E105.57490
G1 X-7.617 Y-5.008 E105.60891
G1 X-6.687 Y-5.353 E105.63861
G1 X-5.749 Y-5.647 E105.66803
G1 X-4.819 Y-5.902 E105.69690
G1 X-4.287 Y-6.027 E105.71326
G1 X-3.250 Y-6.262 E105.74508
G1 X-1.952 Y-6.501 E105.78459
G1 X-1.208 Y-6.574 E105.80697
G1 X-0.975 Y-6.598 E105.81398
G1 X0.005 Y-6.631 E105.84333
G1 X0.990 Y-6.597 E105.87284
G1 X1.964 Y-6.500 E105.90214
G1 X2.930 Y-6.334 E105.93148
G1 X3.880 Y-6.128 E105.96057
G1 X4.830 Y-5.901 E105.98981
G1 X5.333 Y-5.764 E106.00542
G1 X6.399 Y-5.447 E106.03871
G1 X7.487 Y-5.061 E106.07327
G1 X8.257 Y-4.729 E106.09837
G1 X9.396 Y-4.094 E106.13740
G1 X10.134 Y-3.609 E106.16384
G1 X10.358 Y-3.453 E106.17201
G1 X10.620 Y-3.175 E106.18344
G1 X10.583 Y-3.060 E106.18706
G1 X10.960 Y-2.665 E106.20340
G1 X11.369 Y-2.338 E106.21908
G1 X11.650 Y-2.223 E106.22817
G1 X12.030 Y-1.931 E106.24251
G1 X12.353 Y-1.539 E106.25772
G1 X12.685 Y-1.143 E106.27319
G1 X13.043 Y-0.543 E106.29410
G1 X13.235 Y-0.217 E106.30543
G1 X13.499 Y0.524 E106.32897
G1 X13.545 Y0.670 E106.33356
G1 X13.647 Y1.546 E106.35996
G1 X13.551 Y2.371 E106.38482
G1 X13.545 Y2.417 E106.38621
G1 X13.317 Y3.081 E106.40722
G0 F9000 X12.806 Y2.906
;TYPE:FILL
G1 F3300 X12.239 Y2.339 E106.43122
G0 F9000 X12.092 Y2.759
G1 F3300 X12.515 Y3.464 E106.45350
G1 X11.835 Y3.350 E106.47357
G1 X12.059 Y4.139 E106.49260
G1 X11.399 Y4.045 E106.51021
G1 X11.514 Y4.726 E106.52675
G1 X10.891 Y4.668 E106.54065
G1 X10.825 Y5.168 E106.55016
G1 X10.318 Y5.227 E106.55807
G1 X10.245 Y5.720 E106.56766
G1 X9.591 Y5.631 E106.58238
G1 X9.715 Y6.321 E106.60194
G1 X8.948 Y6.119 E106.62082
G1 X9.029 Y6.766 E106.63804
G1 X8.378 Y6.681 E106.65072
G1 X8.305 Y7.173 E106.66300
G1 X7.640 Y7.074 E106.67518
G1 X7.538 Y7.537 E106.68699
G1 X6.853 Y7.418 E106.69922
G1 X6.724 Y7.856 E106.71104
G1 X6.162 Y7.859 E106.72290
G1 X5.736 Y7.999 E106.73435
G1 X5.299 Y8.128 E106.74574
G1 X4.862 Y8.256 E106.75664
G1 X4.406 Y8.366 E106.76791
G1 X3.950 Y8.475 E106.77903
G1 X3.490 Y8.581 E106.79012
G1 X3.023 Y8.680 E106.80145
G1 X2.549 Y8.771 E106.81290
G1 X2.068 Y8.857 E106.82453
G1 X1.566 Y8.920 E106.83695
G1 X1.052 Y8.971 E106.84970
G1 X0.511 Y8.996 E106.86332
G1 X-0.041 Y9.009 E106.87687
G1 X-0.624 Y8.991 E106.89141
G1 X-1.230 Y8.951 E106.90641
G1 X-1.865 Y8.882 E106.92213
G1 X-2.539 Y8.772 E106.93910
G1 X-3.247 Y8.631 E106.95682
G1 X-3.974 Y8.469 E106.97471
G1 X-4.720 Y8.289 E106.99292
G1 X-5.513 Y8.062 E107.01286
G1 X-6.199 Y7.659 E107.03667
G0 F9000 X-6.502 Y7.922
G1 F3300 X-7.122 Y7.302 E107.06292
G0 F9000 X-7.389 Y7.601
G1 F3300 X-8.187 Y6.803 E107.09670
G0 F9000 X-8.490 Y7.065
G1 F3300 X-10.366 Y5.190 E107.17610
G0 F9000 X-10.772 Y4.783
G1 F3300 X-12.882 Y2.674 E107.26540
G0 F9000 X-13.051 Y1.938
G1 F3300 X-11.995 Y2.995 E107.31012
G0 F9000 X-12.252 Y2.172
G1 F3300 X-13.075 Y1.349 E107.34496
G0 F9000 X-13.017 Y0.841
G1 F3300 X-12.332 Y1.526 E107.37396
G0 F9000 X-12.268 Y1.025
G1 F3300 X-12.878 Y0.415 E107.39978
G0 F9000 X-12.729 Y-0.001
G1 F3300 X-12.093 Y0.351 E107.42334
G1 X-12.414 Y-0.534 E107.44462
G1 X-11.740 Y-0.426 E107.46398
G1 X-11.934 Y-1.186 E107.48223
G1 X-11.284 Y-1.102 E107.49920
G1 X-11.348 Y-1.731 E107.51458
G1 X-10.761 Y-1.711 E107.52596
G1 X-10.682 Y-2.197 E107.53477
G1 X-10.154 Y-2.234 E107.54321
G1 X-10.114 Y-2.760 E107.55473
G1 X-9.431 Y-2.643 E107.57055
G1 X-9.555 Y-3.333 E107.59012
G1 X-8.804 Y-3.147 E107.60836
G1 X-8.863 Y-3.772 E107.62485
G1 X-8.214 Y-3.689 E107.63670
G1 X-8.127 Y-4.167 E107.64906
G1 X-7.458 Y-4.064 E107.66106
G1 X-7.349 Y-4.521 E107.67312
G1 X-6.656 Y-4.393 E107.68515
G1 X-6.526 Y-4.829 E107.69723
G1 X-5.961 Y-4.830 E107.70899
G1 X-5.534 Y-4.968 E107.72034
G1 X-5.095 Y-5.095 E107.73159
G1 X-4.650 Y-5.216 E107.74267
G1 X-4.193 Y-5.325 E107.75399
G1 X-3.736 Y-5.433 E107.76502
G1 X-3.274 Y-5.537 E107.77612
G1 X-2.809 Y-5.637 E107.78747
G1 X-2.327 Y-5.721 E107.79941
G1 X-1.834 Y-5.794 E107.81127
G1 X-1.325 Y-5.850 E107.82349
G1 X-0.804 Y-5.895 E107.83617
G1 X-0.257 Y-5.913 E107.84977
G1 X0.309 Y-5.912 E107.86383
G1 X0.897 Y-5.890 E107.87836
G1 X1.518 Y-5.835 E107.89390
G1 X2.175 Y-5.743 E107.91038
G1 X2.857 Y-5.627 E107.92731
G1 X3.575 Y-5.474 E107.94511
G1 X4.313 Y-5.302 E107.96331
G1 X5.077 Y-5.104 E107.98221
G1 X5.882 Y-4.864 E108.00283
G1 X6.597 Y-4.433 E108.02782
G0 F9000 X6.899 Y-4.696
G1 F3300 X7.579 Y-4.017 E108.05659
G0 F9000 X7.841 Y-4.321
G1 F3300 X9.681 Y-2.480 E108.13450
G0 F9000 X9.072 Y-3.655
G1 F3300 X12.744 Y0.016 E108.28993
G0 F9000 X12.194 Y0.597
G1 F3300 X13.097 Y1.501 E108.32818
G0 F9000 X13.048 Y2.017
G1 F3300 X12.305 Y1.274 E108.35963
G0 F9000 X12.302 Y1.837
G1 F3300 X12.950 Y2.485 E108.38706
G0 F9000 X13.024 Y0.861
G1 F3300 X11.757 Y-0.405 E108.44068
G0 F9000 X-11.218 Y4.903
G1 F3300 X-12.288 Y3.833 E108.48598
;LAYER:7
G0 F9000 X-11.582 Y4.915 Z1.700
;TYPE:WALL-INNER
G1 F3360 X-11.852 Y4.800 E108.49476
G1 X-12.128 Y4.581 E108.50531
G1 X-12.680 Y3.895 E108.53166
G1 X-13.158 Y3.084 E108.55984
G1 X-13.352 Y2.486 E108.57866
G1 X-13.412 Y2.295 E108.58466
G1 X-13.499 Y1.546 E108.60723
G1 X-13.412 Y0.790 E108.63001
G1 X-13.163 Y0.017 E108.65432
G1 X-12.882 Y-0.466 E108.67104
G1 X-12.682 Y-0.802 E108.68275
G1 X-12.242 Y-1.355 E108.70390
G1 X-12.129 Y-1.491 E108.70920
G1 X-11.852 Y-1.709 E108.71975
G1 X-11.582 Y-1.825 E108.72854
G1 X-11.107 Y-2.210 E108.74685
G1 X-10.585 Y-2.805 E108.77054
G1 X-10.621 Y-2.915 E108.77400
G1 X-10.570 Y-2.972 E108.77629
G1 X-10.017 Y-3.380 E108.79687
G1 X-9.430 Y-3.767 E108.81791
G1 X-8.809 Y-4.146 E108.83969
G1 X-8.353 Y-4.381 E108.85505
G1 X-7.465 Y-4.777 E108.88415
G1 X-6.565 Y-5.110 E108.91288
G1 X-5.053 Y-5.560 E108.96010
G1 X-4.034 Y-5.813 E108.99153
G1 X-3.011 Y-6.041 E109.02290
G1 X-1.995 Y-6.224 E109.05380
G1 X-1.040 Y-6.327 E109.08256
G1 X-0.036 Y-6.366 E109.11263
G1 X0.007 Y-6.368 E109.11392
G1 X0.966 Y-6.336 E109.14264
G1 X1.916 Y-6.239 E109.17123
G1 X2.849 Y-6.080 E109.19956
G1 X3.787 Y-5.877 E109.22829
G1 X4.731 Y-5.650 E109.25735
G1 X5.648 Y-5.400 E109.28580
G1 X6.570 Y-5.111 E109.31473
G1 X7.485 Y-4.772 E109.34394
G1 X8.348 Y-4.388 E109.37221
G1 X8.821 Y-4.143 E109.38816
G1 X9.436 Y-3.768 E109.40972
G1 X10.025 Y-3.380 E109.43083
G1 X10.576 Y-2.973 E109.45134
G1 X10.630 Y-2.913 E109.45375
G1 X10.595 Y-2.802 E109.45724
G1 X11.113 Y-2.210 E109.48078
G1 X11.588 Y-1.826 E109.49907
G1 X11.857 Y-1.711 E109.50783
G1 X12.132 Y-1.493 E109.51833
G1 X12.685 Y-0.805 E109.54475
G1 X13.143 Y-0.029 E109.57173
G1 X13.356 Y0.601 E109.59163
G1 X13.416 Y0.789 E109.59754
G1 X13.503 Y1.546 E109.62035
G1 X13.416 Y2.300 E109.64307
G1 X13.167 Y3.074 E109.66741
G1 X12.889 Y3.555 E109.68404
G1 X12.689 Y3.890 E109.69572
G1 X12.246 Y4.445 E109.71697
G1 X12.132 Y4.582 E109.72231
G1 X11.860 Y4.798 E109.73271
G1 X11.590 Y4.914 E109.74150
G1 X11.112 Y5.300 E109.75989
G1 X10.592 Y5.896 E109.78357
G1 X10.628 Y6.006 E109.78704
G1 X10.577 Y6.062 E109.78930
G1 X10.025 Y6.470 E109.80985
G1 X9.437 Y6.857 E109.83092
G1 X8.822 Y7.232 E109.85248
G1 X8.348 Y7.478 E109.86847
G1 X7.481 Y7.864 E109.89688
G1 X6.576 Y8.199 E109.92577
G1 X5.072 Y8.647 E109.97274
G1 X4.048 Y8.903 E110.00434
G1 X3.027 Y9.130 E110.03565
G1 X2.007 Y9.313 E110.06667
G1 X1.053 Y9.417 E110.09539
G1 X0.048 Y9.456 E110.12550
G1 X0.005 Y9.458 E110.12679
G1 X-0.953 Y9.426 E110.15548
G1 X-1.902 Y9.329 E110.18404
G1 X-2.832 Y9.170 E110.21228
G1 X-3.774 Y8.965 E110.24114
G1 X-4.720 Y8.740 E110.27024
G1 X-5.651 Y8.486 E110.29913
G1 X-6.560 Y8.200 E110.32766
G1 X-7.130 Y7.991 E110.34583
G1 X-8.214 Y7.533 E110.38106
G1 X-8.815 Y7.232 E110.40118
G1 X-9.428 Y6.858 E110.42267
G1 X-10.025 Y6.464 E110.44408
G1 X-10.569 Y6.063 E110.46431
G1 X-10.623 Y6.003 E110.46673
G1 X-10.588 Y5.892 E110.47021
G1 X-11.106 Y5.300 E110.49376
G1 X-11.582 Y4.915 E110.51209
G0 F9000 X-11.790 Y5.261
;TYPE:WALL-OUTER
G1 F1980 X-12.058 Y5.147 E110.52080
G1 X-12.410 Y4.868 E110.53425
G1 X-13.013 Y4.118 E110.56306
G1 X-13.507 Y3.281 E110.59215
G1 X-13.530 Y3.237 E110.59364
G1 X-13.804 Y2.386 E110.62040
G1 X-13.901 Y1.546 E110.64571
G1 X-13.804 Y0.702 E110.67114
G1 X-13.531 Y-0.145 E110.69778
G1 X-13.226 Y-0.671 E110.71598
G1 X-13.014 Y-1.028 E110.72841
G1 X-12.549 Y-1.611 E110.75073
G1 X-12.408 Y-1.781 E110.75734
G1 X-12.060 Y-2.055 E110.77060
G1 X-11.791 Y-2.171 E110.77937
G1 X-11.385 Y-2.499 E110.79499
G1 X-11.036 Y-2.898 E110.81086
G1 X-11.072 Y-3.011 E110.81441
G1 X-10.841 Y-3.269 E110.82478
G1 X-10.243 Y-3.710 E110.84702
G1 X-9.656 Y-4.097 E110.86807
G1 X-9.006 Y-4.494 E110.89087
G1 X-8.523 Y-4.743 E110.90713
G1 X-7.614 Y-5.149 E110.93693
G1 X-6.691 Y-5.490 E110.96639
G1 X-6.207 Y-5.641 E110.98156
G1 X-5.151 Y-5.948 E111.01448
G1 X-4.121 Y-6.204 E111.04625
G1 X-3.095 Y-6.433 E111.07772
G1 X-2.066 Y-6.618 E111.10902
G1 X-1.056 Y-6.727 E111.13943
G1 X-0.055 Y-6.765 E111.16941
G1 X0.010 Y-6.769 E111.17136
G1 X0.990 Y-6.735 E111.20072
G1 X1.964 Y-6.637 E111.23002
G1 X2.930 Y-6.472 E111.25935
G1 X3.880 Y-6.266 E111.28845
G1 X4.830 Y-6.038 E111.31770
G1 X5.760 Y-5.784 E111.34656
G1 X6.698 Y-5.490 E111.37598
G1 X7.632 Y-5.144 E111.40580
G1 X8.522 Y-4.748 E111.43496
G1 X9.012 Y-4.495 E111.45146
G1 X9.662 Y-4.098 E111.47426
G1 X10.251 Y-3.710 E111.49537
G1 X10.847 Y-3.270 E111.51755
G1 X11.079 Y-3.011 E111.52796
G1 X11.044 Y-2.897 E111.53153
G1 X11.391 Y-2.499 E111.54733
G1 X11.797 Y-2.172 E111.56294
G1 X12.065 Y-2.056 E111.57168
G1 X12.412 Y-1.782 E111.58492
G1 X13.018 Y-1.028 E111.61387
G1 X13.508 Y-0.197 E111.64275
G1 X13.738 Y0.480 E111.66415
G1 X13.808 Y0.704 E111.67118
G1 X13.905 Y1.546 E111.69655
G1 X13.808 Y2.386 E111.72186
G1 X13.536 Y3.235 E111.74855
G1 X13.233 Y3.760 E111.76669
G1 X13.017 Y4.120 E111.77926
G1 X12.553 Y4.701 E111.80152
G1 X12.413 Y4.870 E111.80809
G1 X12.066 Y5.145 E111.82134
G1 X11.798 Y5.260 E111.83007
G1 X11.391 Y5.589 E111.84574
G1 X11.043 Y5.988 E111.86158
G1 X11.079 Y6.101 E111.86513
G1 X10.848 Y6.359 E111.87550
G1 X10.252 Y6.799 E111.89768
G1 X9.663 Y7.187 E111.91879
G1 X9.013 Y7.584 E111.94159
G1 X8.523 Y7.837 E111.95810
G1 X7.629 Y8.236 E111.98740
G1 X6.702 Y8.579 E112.01699
G1 X6.218 Y8.730 E112.03217
G1 X5.169 Y9.035 E112.06487
G1 X4.129 Y9.295 E112.09696
G1 X3.106 Y9.523 E112.12833
G1 X2.079 Y9.707 E112.15956
G1 X1.069 Y9.817 E112.18997
G1 X0.067 Y9.855 E112.21999
G1 X0.002 Y9.859 E112.22194
G1 X-0.977 Y9.825 E112.25126
G1 X-1.951 Y9.727 E112.28057
G1 X-2.918 Y9.561 E112.30994
G1 X-3.867 Y9.355 E112.33900
G1 X-4.818 Y9.128 E112.36827
G1 X-5.751 Y8.873 E112.39722
G1 X-6.691 Y8.578 E112.42672
G1 X-7.286 Y8.359 E112.44569
G1 X-8.382 Y7.897 E112.48130
G1 X-9.001 Y7.587 E112.50202
G1 X-9.655 Y7.188 E112.52495
G1 X-10.244 Y6.799 E112.54608
G1 X-10.840 Y6.360 E112.56824
G1 X-11.072 Y6.101 E112.57865
G1 X-11.037 Y5.987 E112.58222
G1 X-11.385 Y5.589 E112.59805
G1 X-11.790 Y5.261 E112.61365
G0 F9000 X-11.393 Y4.888
;TYPE:FILL
G1 F3360 X-11.037 Y4.814 E112.62309
G1 X-10.942 Y5.285 E112.63050
G1 X-10.385 Y5.294 E112.64000
G1 X-10.428 Y5.902 E112.65473
G1 X-9.710 Y5.751 E112.67384
G1 X-9.822 Y6.428 E112.69217
G1 X-9.146 Y6.317 E112.70889
G1 X-9.135 Y6.872 E112.72056
G1 X-8.502 Y6.805 E112.73223
G1 X-8.408 Y7.277 E112.74379
G1 X-7.756 Y7.190 E112.75541
G1 X-7.628 Y7.628 E112.76637
G1 X-6.973 Y7.539 E112.77710
G1 X-6.822 Y7.953 E112.78795
G1 X-6.276 Y7.973 E112.79859
G1 X-5.848 Y8.111 E112.80919
G1 X-5.411 Y8.239 E112.81995
G1 X-4.965 Y8.360 E112.83099
G1 X-4.516 Y8.476 E112.84209
G1 X-4.060 Y8.586 E112.85336
G1 X-3.601 Y8.692 E112.86471
G1 X-3.136 Y8.792 E112.87628
G1 X-2.663 Y8.885 E112.88818
G1 X-2.184 Y8.972 E112.90013
G1 X-1.689 Y9.043 E112.91233
G1 X-1.175 Y9.095 E112.92513
G1 X-0.643 Y9.128 E112.93841
G1 X-0.096 Y9.146 E112.95205
G1 X0.483 Y9.132 E112.96662
G1 X1.076 Y9.105 E112.98105
G1 X1.707 Y9.039 E112.99663
G1 X2.372 Y8.940 E113.01298
G1 X3.067 Y8.812 E113.02985
G1 X3.792 Y8.651 E113.04763
G1 X4.536 Y8.473 E113.06578
G1 X5.309 Y8.266 E113.08447
G1 X6.111 Y8.030 E113.10374
G1 X6.817 Y7.607 E113.12837
G0 F9000 X7.155 Y7.834
G1 F3360 X7.831 Y7.159 E113.15697
G0 F9000 X8.138 Y7.417
G1 F3360 X10.096 Y5.460 E113.23984
G0 F9000 X9.425 Y6.696
G1 F3360 X12.945 Y3.177 E113.38883
G0 F9000 X12.468 Y2.522
G1 F3360 X13.348 Y1.641 E113.42610
G0 F9000 X13.310 Y1.114
G1 F3360 X12.592 Y1.832 E113.45650
G0 F9000 X12.592 Y1.267
G1 F3360 X13.220 Y0.638 E113.48310
G0 F9000 X13.077 Y0.216
G1 F3360 X12.456 Y0.554 E113.50633
G1 X12.791 Y-0.345 E113.52787
G1 X12.130 Y-0.251 E113.54696
G1 X12.332 Y-1.018 E113.56512
G1 X11.691 Y-0.943 E113.58207
G1 X11.756 Y-1.573 E113.59714
G1 X11.184 Y-1.567 E113.60806
G1 X11.101 Y-2.050 E113.61653
G1 X10.581 Y-2.096 E113.62458
G1 X10.567 Y-2.647 E113.63646
G1 X9.882 Y-2.528 E113.65358
G1 X10.004 Y-3.216 E113.67250
G1 X9.273 Y-3.050 E113.69012
G1 X9.324 Y-3.667 E113.70592
G1 X8.698 Y-3.607 E113.71745
G1 X8.614 Y-4.089 E113.72927
G1 X7.963 Y-4.004 E113.74097
G1 X7.850 Y-4.456 E113.75247
G1 X7.189 Y-4.361 E113.76352
G1 X7.047 Y-4.785 E113.77483
G1 X6.377 Y-4.680 E113.78584
G1 X6.208 Y-5.077 E113.79643
G1 X5.650 Y-5.085 E113.80708
G1 X5.208 Y-5.208 E113.81814
G1 X4.762 Y-5.328 E113.82923
G1 X4.310 Y-5.441 E113.84049
G1 X3.852 Y-5.549 E113.85187
G1 X3.390 Y-5.653 E113.86335
G1 X2.922 Y-5.750 E113.87512
G1 X2.445 Y-5.839 E113.88714
G1 X1.961 Y-5.921 E113.89915
G1 X1.453 Y-5.978 E113.91193
G1 X0.934 Y-6.025 E113.92476
G1 X0.390 Y-6.047 E113.93841
G1 X-0.168 Y-6.054 E113.95215
G1 X-0.755 Y-6.032 E113.96665
G1 X-1.369 Y-5.983 E113.98191
G1 X-2.007 Y-5.910 E113.99734
G1 X-2.692 Y-5.792 E114.01409
G1 X-3.404 Y-5.645 E114.03150
G1 X-4.139 Y-5.477 E114.04938
G1 X-4.888 Y-5.293 E114.06751
G1 X-5.680 Y-5.066 E114.08674
G1 X-6.343 Y-4.687 E114.10960
G0 F9000 X-6.677 Y-4.919
G1 F3360 X-7.265 Y-4.331 E114.13449
G0 F9000 X-7.597 Y-4.565
G1 F3360 X-8.367 Y-3.794 E114.16711
G0 F9000 X-8.667 Y-4.060
G1 F3360 X-10.697 Y-2.030 E114.25305
G0 F9000 X-10.449 Y-2.843
G1 F3360 X-10.289 Y-3.003 E114.25982
G0 F9000 X-11.307 Y-1.420
G1 F3360 X-13.145 Y0.417 E114.33761
G0 F9000 X-13.311 Y1.149
G1 F3360 X-12.313 Y0.151 E114.37986
G0 F9000 X-12.546 Y0.949
G1 F3360 X-13.333 Y1.737 E114.41320
G0 F9000 X-13.275 Y2.245
G1 F3360 X-12.618 Y1.587 E114.44103
G0 F9000 X-12.553 Y2.088
G1 F3360 X-13.141 Y2.676 E114.46592
G0 F9000 X-12.990 Y3.090
G1 F3360 X-12.375 Y2.758 E114.48873
G1 X-12.675 Y3.624 E114.50903
G1 X-12.016 Y3.531 E114.52780
G1 X-12.193 Y4.274 E114.54529
G1 X-11.559 Y4.205 E114.56171
G1 X-11.758 Y4.687 E114.57732
G0 F9000 X-12.546 Y-0.746
G1 F3360 X-11.651 Y-1.641 E114.61521
G0 F9000 X12.017 Y3.539
G1 F3360 X13.274 Y2.281 E114.66844
;LAYER:8
G0 F9000 X13.753 Y1.482 Z1.900
;TYPE:WALL-INNER
G1 F3360 X13.762 Y1.549 E114.67047
G1 X13.679 Y2.260 E114.69189
G1 X13.439 Y3.012 E114.71552
G1 X13.165 Y3.527 E114.73299
G1 X13.016 Y3.780 E114.74178
G1 X12.507 Y4.434 E114.76658
G1 X12.257 Y4.630 E114.77609
G1 X11.978 Y4.752 E114.78521
G1 X11.526 Y5.150 E114.80323
G1 X11.019 Y5.729 E114.82627
G1 X11.061 Y5.856 E114.83028
G1 X11.032 Y5.892 E114.83166
G1 X10.560 Y6.253 E114.84945
G1 X10.016 Y6.656 E114.86971
G1 X9.495 Y6.999 E114.88839
G1 X8.343 Y7.618 E114.92753
G1 X7.481 Y8.002 E114.95578
G1 X6.966 Y8.192 E114.97221
G1 X5.916 Y8.543 E115.00535
G1 X4.901 Y8.831 E115.03693
G1 X3.867 Y9.084 E115.06880
G1 X2.875 Y9.301 E115.09920
G1 X1.902 Y9.456 E115.12869
G1 X0.977 Y9.541 E115.15650
G1 X0.060 Y9.569 E115.18396
G1 X0.015 Y9.570 E115.18531
G1 X-0.964 Y9.541 E115.21462
G1 X-1.862 Y9.459 E115.24162
G1 X-2.650 Y9.340 E115.26547
G1 X-3.774 Y9.103 E115.29986
G1 X-4.720 Y8.877 E115.32897
G1 X-5.637 Y8.627 E115.35742
G1 X-6.565 Y8.336 E115.38654
G1 X-7.471 Y8.001 E115.41545
G1 X-8.347 Y7.611 E115.44415
G1 X-9.111 Y7.217 E115.46989
G1 X-9.468 Y7.012 E115.48221
G1 X-10.025 Y6.645 E115.50218
G1 X-10.545 Y6.260 E115.52154
G1 X-11.028 Y5.889 E115.53978
G1 X-11.051 Y5.862 E115.54084
G1 X-11.005 Y5.733 E115.54494
G1 X-11.536 Y5.136 E115.56885
G1 X-11.972 Y4.751 E115.58626
G1 X-12.249 Y4.631 E115.59530
G1 X-12.504 Y4.433 E115.60497
G1 X-13.013 Y3.778 E115.62980
G1 X-13.434 Y3.012 E115.65596
G1 X-13.675 Y2.263 E115.67951
G1 X-13.749 Y1.609 E115.69922
G1 X-13.758 Y1.543 E115.70121
G1 X-13.675 Y0.823 E115.72290
G1 X-13.437 Y0.083 E115.74617
G1 X-13.160 Y-0.437 E115.76381
G1 X-13.012 Y-0.689 E115.77256
G1 X-12.503 Y-1.344 E115.79739
G1 X-12.250 Y-1.541 E115.80699
G1 X-11.971 Y-1.663 E115.81610
G1 X-11.522 Y-2.060 E115.83404
G1 X-11.009 Y-2.640 E115.85722
G1 X-11.053 Y-2.769 E115.86130
G1 X-11.027 Y-2.801 E115.86254
G1 X-10.554 Y-3.163 E115.88037
G1 X-10.025 Y-3.555 E115.90007
G1 X-9.469 Y-3.921 E115.92000
G1 X-8.339 Y-4.526 E115.95837
G1 X-7.472 Y-4.912 E115.98678
G1 X-6.956 Y-5.102 E116.00324
G1 X-5.905 Y-5.453 E116.03641
G1 X-4.885 Y-5.744 E116.06816
G1 X-3.855 Y-5.994 E116.09988
G1 X-2.864 Y-6.211 E116.13025
G1 X-1.889 Y-6.366 E116.15980
G1 X-0.964 Y-6.451 E116.18761
G1 X-0.048 Y-6.479 E116.21504
G1 X-0.003 Y-6.480 E116.21639
G1 X0.977 Y-6.451 E116.24574
G1 X1.875 Y-6.369 E116.27273
G1 X2.661 Y-6.250 E116.29653
G1 X3.787 Y-6.013 E116.33097
G1 X4.724 Y-5.790 E116.35980
G1 X5.654 Y-5.535 E116.38867
G1 X6.576 Y-5.246 E116.41759
G1 X7.473 Y-4.914 E116.44622
G1 X8.031 Y-4.667 E116.46449
G1 X9.107 Y-4.132 E116.50046
G1 X10.041 Y-3.549 E116.53342
G1 X10.560 Y-3.164 E116.55276
G1 X11.029 Y-2.806 E116.57043
G1 X11.059 Y-2.769 E116.57185
G1 X11.015 Y-2.642 E116.57587
G1 X11.541 Y-2.046 E116.59967
G1 X11.980 Y-1.662 E116.61713
G1 X12.255 Y-1.542 E116.62611
G1 X12.505 Y-1.346 E116.63562
G1 X13.011 Y-0.697 E116.66025
G1 X13.362 Y-0.064 E116.68192
G1 X13.441 Y0.084 E116.68694
G1 X13.678 Y0.823 E116.71017
G1 X13.753 Y1.482 E116.73003
G0 F9000 X14.150 Y1.435
;TYPE:WALL-OUTER
G1 F1980 X14.164 Y1.545 E116.73335
G1 X14.071 Y2.347 E116.75751
G1 X13.809 Y3.167 E116.78328
G1 X13.517 Y3.718 E116.80195
G1 X13.350 Y4.002 E116.81181
G1 X12.792 Y4.718 E116.83898
G1 X12.460 Y4.978 E116.85161
G1 X12.196 Y5.093 E116.86023
G1 X11.810 Y5.433 E116.87562
G1 X11.471 Y5.820 E116.89103
G1 X11.510 Y5.938 E116.89475
G1 X11.312 Y6.181 E116.90413
G1 X10.796 Y6.576 E116.92358
G1 X10.257 Y6.976 E116.94367
G1 X9.690 Y7.349 E116.96399
G1 X8.527 Y7.974 E117.00351
G1 X7.629 Y8.374 E117.03294
G1 X7.105 Y8.567 E117.04965
G1 X6.031 Y8.926 E117.08355
G1 X4.996 Y9.220 E117.11576
G1 X3.962 Y9.473 E117.14762
G1 X2.945 Y9.695 E117.17878
G1 X1.959 Y9.852 E117.20867
G1 X0.994 Y9.941 E117.23768
G1 X0.072 Y9.969 E117.26529
G1 X0.009 Y9.970 E117.26718
G1 X-0.981 Y9.941 E117.29682
G1 X-1.909 Y9.856 E117.32472
G1 X-2.725 Y9.733 E117.34942
G1 X-3.865 Y9.492 E117.38430
G1 X-4.818 Y9.265 E117.41363
G1 X-5.751 Y9.010 E117.44258
G1 X-6.691 Y8.716 E117.47206
G1 X-7.621 Y8.372 E117.50174
G1 X-8.514 Y7.974 E117.53101
G1 X-9.308 Y7.565 E117.55775
G1 X-9.677 Y7.353 E117.57048
G1 X-10.249 Y6.976 E117.59099
G1 X-10.788 Y6.577 E117.61106
G1 X-11.306 Y6.181 E117.63058
G1 X-11.503 Y5.940 E117.63990
G1 X-11.461 Y5.822 E117.64365
G1 X-11.819 Y5.420 E117.65976
G1 X-12.189 Y5.093 E117.67454
G1 X-12.454 Y4.979 E117.68318
G1 X-12.789 Y4.718 E117.69589
G1 X-13.342 Y4.007 E117.72285
G1 X-13.806 Y3.164 E117.75166
G1 X-14.067 Y2.352 E117.77719
G1 X-14.146 Y1.657 E117.79813
G1 X-14.161 Y1.547 E117.80145
G1 X-14.067 Y0.737 E117.82586
G1 X-13.807 Y-0.072 E117.85130
G1 X-13.508 Y-0.635 E117.87038
G1 X-13.345 Y-0.912 E117.88000
G1 X-12.788 Y-1.628 E117.90716
G1 X-12.454 Y-1.889 E117.91984
G1 X-12.189 Y-2.004 E117.92849
G1 X-11.805 Y-2.343 E117.94382
G1 X-11.463 Y-2.731 E117.95931
G1 X-11.504 Y-2.849 E117.96305
G1 X-11.304 Y-3.093 E117.97249
G1 X-10.792 Y-3.484 E117.99177
G1 X-10.248 Y-3.887 E118.01204
G1 X-9.675 Y-4.264 E118.03257
G1 X-8.513 Y-4.886 E118.07203
G1 X-7.620 Y-5.284 E118.10129
G1 X-7.095 Y-5.477 E118.11803
G1 X-6.020 Y-5.836 E118.15196
G1 X-4.978 Y-6.133 E118.18439
G1 X-3.954 Y-6.382 E118.21594
G1 X-2.934 Y-6.605 E118.24719
G1 X-1.946 Y-6.762 E118.27714
G1 X-0.981 Y-6.851 E118.30615
G1 X-0.060 Y-6.879 E118.33373
G1 X0.003 Y-6.880 E118.33562
G1 X0.994 Y-6.851 E118.36529
G1 X1.922 Y-6.766 E118.39319
G1 X2.736 Y-6.643 E118.41783
G1 X3.880 Y-6.402 E118.45283
G1 X4.830 Y-6.176 E118.48206
G1 X5.760 Y-5.921 E118.51093
G1 X6.702 Y-5.626 E118.54047
G1 X7.629 Y-5.283 E118.57006
G1 X8.193 Y-5.033 E118.58853
G1 X9.304 Y-4.480 E118.62568
G1 X10.264 Y-3.881 E118.65955
G1 X11.103 Y-3.260 E118.69080
G1 X11.309 Y-3.095 E118.69870
G1 X11.509 Y-2.849 E118.70819
G1 X11.469 Y-2.732 E118.71189
G1 X11.824 Y-2.330 E118.72794
G1 X12.197 Y-2.004 E118.74277
G1 X12.462 Y-1.889 E118.75142
G1 X12.789 Y-1.632 E118.76387
G1 X13.347 Y-0.915 E118.79106
G1 X13.715 Y-0.253 E118.81374
G1 X13.810 Y-0.075 E118.81978
G1 X14.071 Y0.736 E118.84528
G1 X14.150 Y1.435 E118.86634
G0 F9000 X13.608 Y1.446
;TYPE:FILL
G1 F3360 X12.754 Y0.592 E118.90249
G0 F9000 X12.879 Y1.283
G1 F3360 X13.570 Y1.974 E118.93174
G0 F9000 X13.473 Y2.442
G1 F3360 X12.874 Y1.843 E118.95710
G0 F9000 X12.809 Y2.344
G1 F3360 X13.243 Y3.060 E118.97934
G1 X12.586 Y2.969 E119.00009
G1 X12.830 Y3.779 E119.01864
G1 X12.190 Y3.704 E119.03610
G1 X12.310 Y4.390 E119.05225
G1 X11.716 Y4.361 E119.06547
G1 X11.644 Y4.856 E119.07423
G1 X11.163 Y4.940 E119.08150
G1 X11.091 Y5.434 E119.09069
G1 X10.461 Y5.370 E119.10481
G1 X10.580 Y6.054 E119.12352
G1 X9.867 Y5.907 E119.14101
G1 X9.930 Y6.536 E119.15652
G1 X9.327 Y6.499 E119.16778
G1 X9.239 Y6.976 E119.17903
G1 X8.619 Y6.922 E119.18984
G1 X8.503 Y7.371 E119.20028
G1 X7.879 Y7.313 E119.21084
G1 X7.734 Y7.734 E119.22097
G1 X7.213 Y7.779 E119.23130
G1 X6.800 Y7.932 E119.24161
G1 X6.383 Y8.080 E119.25158
G1 X5.956 Y8.219 E119.26180
G1 X5.520 Y8.349 E119.27235
G1 X5.078 Y8.472 E119.28303
G1 X4.630 Y8.589 E119.29387
G1 X4.174 Y8.700 E119.30490
G1 X3.716 Y8.808 E119.31603
G1 X3.252 Y8.909 E119.32740
G1 X2.784 Y9.007 E119.33875
G1 X2.299 Y9.087 E119.35052
G1 X1.801 Y9.155 E119.36270
G1 X1.291 Y9.211 E119.37499
G1 X0.759 Y9.244 E119.38775
G1 X0.216 Y9.267 E119.40048
G1 X-0.352 Y9.263 E119.41362
G1 X-0.940 Y9.241 E119.42709
G1 X-1.559 Y9.187 E119.44174
G1 X-2.209 Y9.103 E119.45724
G1 X-2.899 Y8.980 E119.47387
G1 X-3.620 Y8.824 E119.49164
G1 X-4.356 Y8.653 E119.50991
G1 X-5.121 Y8.454 E119.52890
G1 X-5.917 Y8.223 E119.54868
G1 X-6.571 Y7.853 E119.57118
G0 F9000 X-6.945 Y8.045
G1 F3360 X-7.516 Y7.474 E119.59535
G0 F9000 X-7.900 Y7.655
G1 F3360 X-8.662 Y6.893 E119.62761
G0 F9000 X-9.012 Y7.109
G1 F3360 X-11.247 Y4.874 E119.72222
G0 F9000 X-11.377 Y4.744
G1 F3360 X-13.370 Y2.751 E119.80659
G0 F9000 X-13.564 Y1.991
G1 F3360 X-12.577 Y2.979 E119.84839
G0 F9000 X-12.829 Y2.160
G1 F3360 X-13.598 Y1.392 E119.88093
G0 F9000 X-13.540 Y0.884
G1 F3360 X-12.903 Y1.520 E119.90787
G0 F9000 X-12.839 Y1.019
G1 F3360 X-13.408 Y0.451 E119.93194
G0 F9000 X-13.254 Y0.039
G1 F3360 X-12.662 Y0.347 E119.95381
G1 X-12.950 Y-0.505 E119.97360
G1 X-12.302 Y-0.423 E119.99183
G1 X-12.461 Y-1.147 E120.00870
G1 X-11.849 Y-1.101 E120.02358
G1 X-11.813 Y-1.631 E120.03415
G1 X-11.318 Y-1.702 E120.04223
G1 X-11.229 Y-2.178 E120.05013
G1 X-10.645 Y-2.160 E120.06190
G1 X-10.730 Y-2.811 E120.07870
G1 X-10.012 Y-2.658 E120.09732
G1 X-10.106 Y-3.318 E120.11409
G1 X-9.466 Y-3.244 E120.12879
G1 X-9.427 Y-3.771 E120.14002
G1 X-8.809 Y-3.718 E120.15112
G1 X-8.699 Y-4.173 E120.16180
G1 X-8.081 Y-4.122 E120.17206
G1 X-7.942 Y-4.548 E120.18242
G1 X-7.308 Y-4.479 E120.19239
G1 X-7.145 Y-4.882 E120.20284
G1 X-6.606 Y-4.909 E120.21301
G1 X-6.183 Y-5.052 E120.22310
G1 X-5.752 Y-5.186 E120.23344
G1 X-5.313 Y-5.313 E120.24401
G1 X-4.869 Y-5.435 E120.25479
G1 X-4.417 Y-5.549 E120.26585
G1 X-3.961 Y-5.658 E120.27697
G1 X-3.500 Y-5.763 E120.28826
G1 X-3.035 Y-5.864 E120.29966
G1 X-2.558 Y-5.953 E120.31131
G1 X-2.073 Y-6.033 E120.32294
G1 X-1.569 Y-6.095 E120.33491
G1 X-1.049 Y-6.141 E120.34721
G1 X-0.508 Y-6.165 E120.36018
G1 X0.041 Y-6.181 E120.37276
G1 X0.622 Y-6.165 E120.38620
G1 X1.222 Y-6.130 E120.40014
G1 X1.852 Y-6.066 E120.41493
G1 X2.519 Y-5.965 E120.43113
G1 X3.226 Y-5.823 E120.44856
G1 X3.956 Y-5.659 E120.46659
G1 X4.700 Y-5.480 E120.48503
G1 X5.473 Y-5.274 E120.50407
G1 X6.289 Y-5.023 E120.52432
G1 X6.973 Y-4.623 E120.54804
G0 F9000 X7.353 Y-4.809
G1 F3360 X8.006 Y-4.155 E120.57571
G0 F9000 X8.403 Y-4.324
G1 F3360 X9.301 Y-3.425 E120.61374
G0 F9000 X9.593 Y-3.134
G1 F3360 X10.404 Y-2.323 E120.64808
G0 F9000 X9.693 Y-3.599
G1 F3360 X13.160 Y-0.132 E120.79485
G0 F9000 X12.332 Y-0.395
G1 F3360 X13.522 Y0.794 E120.84520
G0 F9000 X-10.806 Y5.881
G1 F3360 X-10.881 Y5.806 E120.84838
G0 F9000 X-12.189 Y4.497
G1 F3360 X-12.571 Y4.116 E120.86453
;LAYER:9
G0 F9000 X-12.368 Y4.586 Z2.100
;TYPE:WALL-INNER
G1 F3360 X-12.627 Y4.468 E120.87305
G1 X-12.861 Y4.281 E120.88201
G1 X-13.191 Y3.859 E120.89805
G1 X-13.316 Y3.682 E120.90453
G1 X-13.710 Y2.940 E120.92968
G1 X-13.887 Y2.389 E120.94701
G1 X-13.926 Y2.248 E120.95139
G1 X-13.996 Y1.545 E120.97253
G1 X-13.932 Y0.894 E120.99211
G1 X-13.880 Y0.680 E120.99871
G1 X-13.712 Y0.153 E121.01526
G1 X-13.318 Y-0.588 E121.04039
G1 X-12.986 Y-1.031 E121.05696
G1 X-12.859 Y-1.194 E121.06314
G1 X-12.630 Y-1.378 E121.07194
G1 X-12.369 Y-1.496 E121.08051
G1 X-11.917 Y-1.891 E121.09848
G1 X-11.432 Y-2.487 E121.12148
G1 X-11.476 Y-2.616 E121.12556
G1 X-11.464 Y-2.631 E121.12614
G1 X-10.864 Y-3.115 E121.14921
G1 X-10.076 Y-3.697 E121.17854
G1 X-9.211 Y-4.211 E121.20865
G1 X-8.347 Y-4.660 E121.23780
G1 X-7.819 Y-4.894 E121.25509
G1 X-6.787 Y-5.302 E121.28831
G1 X-5.722 Y-5.648 E121.32183
G1 X-4.781 Y-5.909 E121.35106
G1 X-3.797 Y-6.123 E121.38120
G1 X-2.844 Y-6.311 E121.41028
G1 X-1.909 Y-6.455 E121.43860
G1 X-0.950 Y-6.543 E121.46743
G1 X0.006 Y-6.571 E121.49606
G1 X0.963 Y-6.543 E121.52471
G1 X1.753 Y-6.471 E121.54846
G1 X2.748 Y-6.328 E121.57855
G1 X3.731 Y-6.139 E121.60852
G1 X4.733 Y-5.925 E121.63919
G1 X5.662 Y-5.671 E121.66802
G1 X6.564 Y-5.388 E121.69631
G1 X7.481 Y-5.049 E121.72558
G1 X8.348 Y-4.663 E121.75399
G1 X8.903 Y-4.376 E121.77269
G1 X10.040 Y-3.724 E121.81192
G1 X10.085 Y-3.696 E121.81351
G1 X10.872 Y-3.116 E121.84278
G1 X11.468 Y-2.633 E121.86574
G1 X11.484 Y-2.613 E121.86651
G1 X11.442 Y-2.485 E121.87054
G1 X11.922 Y-1.891 E121.89340
G1 X12.375 Y-1.496 E121.91139
G1 X12.636 Y-1.378 E121.91997
G1 X12.861 Y-1.197 E121.92861
G1 X13.212 Y-0.748 E121.94567
G1 X13.316 Y-0.599 E121.95111
G1 X13.715 Y0.153 E121.97659
G1 X13.891 Y0.701 E121.99382
G1 X13.930 Y0.843 E121.99823
G1 X14.000 Y1.546 E122.01938
G1 X13.937 Y2.184 E122.03857
G1 X13.716 Y2.937 E122.06206
G1 X13.323 Y3.678 E122.08717
G1 X12.985 Y4.130 E122.10406
G1 X12.866 Y4.283 E122.10986
G1 X12.637 Y4.466 E122.11864
G1 X12.374 Y4.587 E122.12730
G1 X11.922 Y4.981 E122.14525
G1 X11.442 Y5.575 E122.16811
G1 X11.484 Y5.703 E122.17215
G1 X11.471 Y5.720 E122.17279
G1 X10.857 Y6.215 E122.19639
G1 X10.088 Y6.783 E122.22501
G1 X9.215 Y7.303 E122.25543
G1 X8.349 Y7.754 E122.28466
G1 X7.829 Y7.984 E122.30168
G1 X6.797 Y8.392 E122.33490
G1 X5.728 Y8.739 E122.36854
G1 X4.796 Y8.997 E122.39749
G1 X3.810 Y9.213 E122.42770
G1 X2.856 Y9.401 E122.45681
G1 X1.908 Y9.548 E122.48553
G1 X0.977 Y9.633 E122.51351
G1 X0.190 Y9.657 E122.53708
G1 X0.011 Y9.661 E122.54244
G1 X-0.964 Y9.633 E122.57164
G1 X-1.722 Y9.564 E122.59442
G1 X-2.736 Y9.418 E122.62509
G1 X-3.718 Y9.229 E122.65502
G1 X-4.727 Y9.013 E122.68591
G1 X-5.647 Y8.762 E122.71446
G1 X-6.553 Y8.478 E122.74288
G1 X-7.472 Y8.138 E122.77221
G1 X-8.347 Y7.749 E122.80087
G1 X-8.887 Y7.471 E122.81905
G1 X-10.033 Y6.814 E122.85860
G1 X-10.078 Y6.786 E122.86018
G1 X-10.851 Y6.216 E122.88893
G1 X-11.464 Y5.721 E122.91252
G1 X-11.476 Y5.706 E122.91309
G1 X-11.432 Y5.577 E122.91717
G1 X-11.917 Y4.981 E122.94017
G1 X-12.368 Y4.586 E122.95812
G0 F9000 X-12.587 Y4.926
;TYPE:WALL-OUTER
G1 F1980 X-12.840 Y4.811 E122.96644
G1 X-13.145 Y4.567 E122.97813
G1 X-13.521 Y4.085 E122.99643
G1 X-13.657 Y3.893 E123.00347
G1 X-13.895 Y3.448 E123.01858
G1 X-14.081 Y3.093 E123.03058
G1 X-14.265 Y2.520 E123.04859
G1 X-14.321 Y2.317 E123.05489
G1 X-14.398 Y1.546 E123.07809
G1 X-14.328 Y0.831 E123.09959
G1 X-14.264 Y0.565 E123.10778
G1 X-14.083 Y0.000 E123.12554
G1 X-13.655 Y-0.806 E123.15286
G1 X-13.301 Y-1.277 E123.17050
G1 X-13.146 Y-1.477 E123.17807
G1 X-12.841 Y-1.721 E123.18976
G1 X-12.588 Y-1.836 E123.19808
G1 X-12.206 Y-2.170 E123.21327
G1 X-11.882 Y-2.568 E123.22863
G1 X-11.923 Y-2.687 E123.23240
G1 X-11.754 Y-2.911 E123.24080
G1 X-11.101 Y-3.437 E123.26590
G1 X-10.298 Y-4.030 E123.29578
G1 X-9.406 Y-4.561 E123.32686
G1 X-8.513 Y-5.024 E123.35697
G1 X-7.620 Y-5.422 E123.38623
G1 X-6.903 Y-5.685 E123.40909
G1 X-5.846 Y-6.028 E123.44236
G1 X-4.874 Y-6.298 E123.47256
G1 X-3.874 Y-6.516 E123.50319
G1 X-2.922 Y-6.703 E123.53224
G1 X-1.946 Y-6.854 E123.56180
G1 X-0.981 Y-6.942 E123.59080
G1 X0.006 Y-6.972 E123.62036
G1 X0.995 Y-6.942 E123.64998
G1 X1.789 Y-6.870 E123.67385
G1 X2.809 Y-6.723 E123.70470
G1 X3.815 Y-6.531 E123.73535
G1 X4.829 Y-6.313 E123.76640
G1 X5.760 Y-6.059 E123.79529
G1 X6.702 Y-5.763 E123.82484
G1 X7.629 Y-5.421 E123.85442
G1 X8.522 Y-5.023 E123.88369
G1 X9.098 Y-4.725 E123.90310
G1 X10.254 Y-4.062 E123.94299
G1 X11.109 Y-3.438 E123.97468
G1 X11.758 Y-2.913 E123.99966
G1 X11.929 Y-2.686 E124.00817
G1 X11.890 Y-2.567 E124.01192
G1 X12.211 Y-2.170 E124.02720
G1 X12.594 Y-1.836 E124.04241
G1 X12.845 Y-1.723 E124.05065
G1 X13.150 Y-1.478 E124.06236
G1 X13.521 Y-1.003 E124.08041
G1 X13.658 Y-0.808 E124.08754
G1 X14.086 Y0.000 E124.11491
G1 X14.269 Y0.570 E124.13283
G1 X14.325 Y0.772 E124.13911
G1 X14.402 Y1.546 E124.16239
G1 X14.333 Y2.251 E124.18359
G1 X14.087 Y3.090 E124.20977
G1 X13.660 Y3.896 E124.23707
G1 X13.305 Y4.370 E124.25480
G1 X13.153 Y4.564 E124.26217
G1 X12.847 Y4.810 E124.27393
G1 X12.593 Y4.926 E124.28228
G1 X12.211 Y5.260 E124.29747
G1 X11.890 Y5.657 E124.31276
G1 X11.929 Y5.776 E124.31650
G1 X11.761 Y5.999 E124.32486
G1 X11.101 Y6.532 E124.35026
G1 X10.311 Y7.115 E124.37965
G1 X9.402 Y7.657 E124.41133
G1 X8.533 Y8.109 E124.44065
G1 X7.631 Y8.511 E124.47021
G1 X6.913 Y8.775 E124.49311
G1 X5.858 Y9.118 E124.52632
G1 X4.886 Y9.387 E124.55651
G1 X3.887 Y9.606 E124.58712
G1 X2.934 Y9.793 E124.61619
G1 X1.960 Y9.944 E124.64570
G1 X0.994 Y10.033 E124.67473
G1 X0.202 Y10.057 E124.69845
G1 X0.008 Y10.061 E124.70426
G1 X-0.981 Y10.033 E124.73388
G1 X-1.776 Y9.960 E124.75778
G1 X-2.797 Y9.813 E124.78865
G1 X-3.802 Y9.621 E124.81928
G1 X-4.818 Y9.402 E124.85039
G1 X-5.749 Y9.149 E124.87927
G1 X-6.691 Y8.853 E124.90883
G1 X-7.621 Y8.509 E124.93851
G1 X-8.515 Y8.112 E124.96779
G1 X-9.091 Y7.815 E124.98719
G1 X-10.247 Y7.152 E125.02708
G1 X-11.095 Y6.533 E125.05851
G1 X-11.754 Y6.000 E125.08388
G1 X-11.923 Y5.777 E125.09226
G1 X-11.882 Y5.658 E125.09603
G1 X-12.206 Y5.260 E125.11139
G1 X-12.587 Y4.926 E125.12655
G0 F9000 X-12.191 Y4.554
;TYPE:FILL
G1 F3360 X-12.113 Y4.194 E125.13527
G1 X-12.696 Y4.211 E125.14832
G1 X-12.569 Y3.518 E125.16429
G1 X-13.197 Y3.580 E125.18186
G1 X-12.936 Y2.754 E125.20053
G1 X-13.580 Y2.832 E125.22116
G1 X-13.116 Y2.085 E125.24748
G0 F9000 X-13.174 Y1.578
G1 F3360 X-13.789 Y2.193 E125.27352
G0 F9000 X-13.840 Y1.678
G1 F3360 X-13.111 Y0.948 E125.30440
G0 F9000 X-13.808 Y1.080
G1 F3360 X-12.867 Y0.139 E125.34424
G0 F9000 X-13.618 Y0.324
G1 F3360 X-11.734 Y-1.559 E125.42397
G0 F9000 X-11.672 Y-1.620
G1 F3360 X-9.297 Y-3.995 E125.52451
G0 F9000 X-8.858 Y-3.869
G1 F3360 X-8.121 Y-4.606 E125.55571
G0 F9000 X-7.703 Y-4.459
G1 F3360 X-6.960 Y-4.919 E125.57873
G1 X-6.097 Y-5.215 E125.59928
G1 X-5.289 Y-5.457 E125.61898
G1 X-4.522 Y-5.658 E125.63791
G1 X-3.794 Y-5.821 E125.65538
G1 X-3.073 Y-5.976 E125.67188
G1 X-2.384 Y-6.100 E125.68660
G1 X-1.728 Y-6.190 E125.70048
G1 X-1.097 Y-6.255 E125.71353
G1 X-0.503 Y-6.283 E125.72506
G1 X0.072 Y-6.294 E125.73651
G1 X0.623 Y-6.279 E125.74731
G1 X1.158 Y-6.249 E125.75798
G1 X1.674 Y-6.199 E125.76838
G1 X2.170 Y-6.130 E125.77838
G1 X2.659 Y-6.053 E125.78861
G1 X3.134 Y-5.962 E125.79878
G1 X3.603 Y-5.866 E125.80931
G1 X4.067 Y-5.764 E125.82005
G1 X4.528 Y-5.660 E125.83108
G1 X4.980 Y-5.546 E125.84211
G1 X5.421 Y-5.422 E125.85304
G1 X5.860 Y-5.294 E125.86406
G1 X6.290 Y-5.159 E125.87485
G1 X6.712 Y-5.015 E125.88547
G1 X7.127 Y-4.865 E125.89583
G1 X7.649 Y-4.821 E125.90603
G1 X7.812 Y-4.418 E125.91575
G1 X8.423 Y-4.464 E125.92529
G1 X8.558 Y-4.033 E125.93519
G1 X9.159 Y-4.068 E125.94529
G1 X9.275 Y-3.618 E125.95527
G1 X9.875 Y-3.652 E125.96588
G1 X9.936 Y-3.148 E125.97697
G1 X10.540 Y-3.186 E125.98938
G1 X10.451 Y-2.532 E126.00583
G1 X11.166 Y-2.681 E126.02403
G1 X11.062 Y-2.010 E126.04172
G1 X11.636 Y-2.019 E126.05357
G1 X11.728 Y-1.546 E126.06097
G1 X12.214 Y-1.466 E126.06878
G1 X12.247 Y-0.933 E126.07925
G1 X12.851 Y-0.971 E126.09424
G1 X12.685 Y-0.239 E126.11109
G1 X13.312 Y-0.301 E126.12901
G1 X13.019 Y0.556 E126.14860
G1 X13.601 Y0.258 E126.16817
G0 F9000 X13.738 Y0.686
G1 F3360 X13.152 Y1.272 E126.19298
G0 F9000 X13.148 Y1.842
G1 F3360 X13.820 Y1.170 E126.22143
G0 F9000 X13.841 Y1.714
G1 F3360 X13.014 Y2.542 E126.25646
G0 F9000 X13.729 Y2.392
G1 F3360 X12.534 Y3.587 E126.30704
G0 F9000 X13.336 Y3.350
G1 F3360 X10.055 Y6.631 E126.44594
G0 F9000 X9.680 Y6.441
G1 F3360 X8.718 Y7.403 E126.48666
G0 F9000 X8.274 Y7.281
G1 F3360 X7.655 Y7.900 E126.51287
G0 F9000 X7.239 Y7.751
G1 F3360 X6.541 Y8.166 E126.53469
G1 X5.712 Y8.429 E126.55473
G1 X4.925 Y8.650 E126.57376
G1 X4.182 Y8.828 E126.59160
G1 X3.455 Y8.989 E126.60859
G1 X2.753 Y9.125 E126.62432
G1 X2.069 Y9.243 E126.63897
G1 X1.431 Y9.316 E126.65175
G1 X0.817 Y9.364 E126.66424
G1 X0.233 Y9.382 E126.67579
G1 X-0.327 Y9.378 E126.68668
G1 X-0.874 Y9.359 E126.69754
G1 X-1.396 Y9.316 E126.70796
G1 X-1.906 Y9.260 E126.71841
G1 X-2.394 Y9.183 E126.72839
G1 X-2.879 Y9.102 E126.73877
G1 X-3.349 Y9.005 E126.74911
G1 X-3.817 Y8.908 E126.75988
G1 X-4.278 Y8.803 E126.77074
G1 X-4.737 Y8.697 E126.78191
G1 X-5.183 Y8.577 E126.79291
G1 X-5.623 Y8.451 E126.80390
G1 X-6.056 Y8.319 E126.81474
G1 X-6.484 Y8.181 E126.82544
G1 X-6.901 Y8.032 E126.83588
G1 X-7.315 Y7.880 E126.84618
G1 X-7.826 Y7.826 E126.85595
G1 X-7.987 Y7.421 E126.86553
G1 X-8.594 Y7.463 E126.87519
G1 X-8.724 Y7.027 E126.88527
G1 X-9.322 Y7.059 E126.89521
G1 X-9.431 Y6.603 E126.90539
G1 X-10.030 Y6.636 E126.91634
G1 X-10.050 Y6.090 E126.92722
G1 X-10.686 Y6.160 E126.94269
G1 X-10.581 Y5.489 E126.95992
G1 X-11.265 Y5.608 E126.97841
G1 X-11.225 Y5.002 E126.99250
G1 X-11.757 Y4.969 E127.00140
G1 X-11.727 Y4.656 E127.01081
G0 F9000 X-11.305 Y-2.553
G1 F3360 X-11.179 Y-2.679 E127.01614
G0 F9000 X10.072 Y6.050
G1 F3360 X10.947 Y5.174 E127.05321
;LAYER:10
G0 F9000 X11.839 Y5.412 Z2.300
;TYPE:WALL-INNER
G1 F3240 X11.885 Y5.549 E127.05753
G1 X10.866 Y6.390 E127.09708
G1 X10.059 Y6.938 E127.12628
G1 X9.217 Y7.439 E127.15561
G1 X8.697 Y7.710 E127.17316
G1 X7.625 Y8.212 E127.20860
G1 X6.597 Y8.604 E127.24153
G1 X5.666 Y8.873 E127.27054
G1 X4.734 Y9.105 E127.29929
G1 X3.810 Y9.306 E127.32760
G1 X2.856 Y9.493 E127.35670
G1 X1.923 Y9.637 E127.38495
G1 X0.963 Y9.725 E127.41381
G1 X0.319 Y9.744 E127.43310
G1 X0.007 Y9.753 E127.44244
G1 X-0.950 Y9.725 E127.47110
G1 X-1.618 Y9.664 E127.49118
G1 X-1.899 Y9.638 E127.49963
G1 X-2.584 Y9.533 E127.52037
G1 X-3.590 Y9.345 E127.55101
G1 X-4.591 Y9.133 E127.58164
G1 X-5.579 Y8.893 E127.61207
G1 X-6.404 Y8.662 E127.63772
G1 X-7.467 Y8.277 E127.67156
G1 X-8.340 Y7.889 E127.70016
G1 X-9.212 Y7.437 E127.72956
G1 X-9.810 Y7.083 E127.75036
G1 X-10.631 Y6.557 E127.77955
G1 X-11.182 Y6.130 E127.80041
G1 X-11.676 Y5.731 E127.81942
G1 X-11.876 Y5.555 E127.82740
G1 X-11.826 Y5.415 E127.83185
G1 X-12.319 Y4.809 E127.85523
G1 X-12.731 Y4.426 E127.87207
G1 X-12.997 Y4.302 E127.88085
G1 X-13.216 Y4.129 E127.88921
G1 X-13.612 Y3.570 E127.90971
G1 X-13.921 Y2.988 E127.92944
G1 X-13.963 Y2.896 E127.93247
G1 X-14.110 Y2.371 E127.94879
G1 X-14.154 Y2.210 E127.95378
G1 X-14.222 Y1.546 E127.97376
G1 X-14.154 Y0.878 E127.99386
G1 X-13.969 Y0.210 E128.01461
G1 X-13.725 Y-0.270 E128.03073
G1 X-13.615 Y-0.476 E128.03772
G1 X-13.212 Y-1.045 E128.05859
G1 X-13.001 Y-1.210 E128.06661
G1 X-12.732 Y-1.335 E128.07549
G1 X-12.307 Y-1.731 E128.09288
G1 X-11.830 Y-2.322 E128.11561
G1 X-11.878 Y-2.462 E128.12004
G1 X-11.183 Y-3.039 E128.14708
G1 X-10.633 Y-3.466 E128.16792
G1 X-10.064 Y-3.841 E128.18832
G1 X-9.196 Y-4.357 E128.21855
G1 X-8.692 Y-4.619 E128.23555
G1 X-8.347 Y-4.797 E128.24718
G1 X-7.615 Y-5.122 E128.27115
G1 X-6.586 Y-5.514 E128.30411
G1 X-5.655 Y-5.784 E128.33313
G1 X-4.739 Y-6.012 E128.36138
G1 X-3.787 Y-6.217 E128.39054
G1 X-2.844 Y-6.403 E128.41931
G1 X-1.909 Y-6.547 E128.44763
G1 X-0.950 Y-6.635 E128.47645
G1 X-0.307 Y-6.654 E128.49571
G1 X0.005 Y-6.663 E128.50505
G1 X0.977 Y-6.634 E128.53416
G1 X1.910 Y-6.548 E128.56221
G1 X2.596 Y-6.443 E128.58298
G1 X3.610 Y-6.254 E128.61386
G1 X4.596 Y-6.046 E128.64402
G1 X5.586 Y-5.804 E128.67453
G1 X6.415 Y-5.572 E128.70030
G1 X7.477 Y-5.188 E128.73410
G1 X8.354 Y-4.797 E128.76285
G1 X9.219 Y-4.347 E128.79203
G1 X9.807 Y-3.999 E128.81249
G1 X10.638 Y-3.468 E128.84201
G1 X11.179 Y-3.047 E128.86253
G1 X11.672 Y-2.649 E128.88149
G1 X11.880 Y-2.466 E128.88979
G1 X11.836 Y-2.321 E128.89432
G1 X12.325 Y-1.720 E128.91751
G1 X12.736 Y-1.336 E128.93435
G1 X13.004 Y-1.212 E128.94319
G1 X13.221 Y-1.040 E128.95148
G1 X13.618 Y-0.478 E128.97208
G1 X13.922 Y0.095 E128.99149
G1 X13.967 Y0.194 E128.99475
G1 X14.113 Y0.714 E129.01092
G1 X14.158 Y0.879 E129.01604
G1 X14.226 Y1.546 E129.03611
G1 X14.158 Y2.211 E129.05612
G1 X13.972 Y2.882 E129.07696
G1 X13.729 Y3.362 E129.09306
G1 X13.619 Y3.568 E129.10005
G1 X13.219 Y4.133 E129.12078
G1 X13.007 Y4.300 E129.12885
G1 X12.738 Y4.425 E129.13773
G1 X12.312 Y4.820 E129.15512
G1 X11.839 Y5.412 E129.17781
G0 F9000 X12.288 Y5.491
;TYPE:WALL-OUTER
G1 F1920 X12.328 Y5.613 E129.18165
G1 X12.181 Y5.825 E129.18937
G1 X11.106 Y6.710 E129.23105
G1 X10.276 Y7.275 E129.26111
G1 X9.406 Y7.791 E129.29139
G1 X8.890 Y8.061 E129.30882
G1 X7.786 Y8.578 E129.34531
G1 X6.725 Y8.983 E129.37931
G1 X5.764 Y9.261 E129.40925
G1 X4.828 Y9.494 E129.43813
G1 X3.887 Y9.698 E129.46695
G1 X2.934 Y9.885 E129.49602
G1 X1.960 Y10.036 E129.52552
G1 X0.995 Y10.124 E129.55453
G1 X0.006 Y10.153 E129.58415
G1 X-0.981 Y10.124 E129.61371
G1 X-1.947 Y10.035 E129.64275
G1 X-2.652 Y9.927 E129.66409
G1 X-3.670 Y9.737 E129.69509
G1 X-4.678 Y9.523 E129.72594
G1 X-5.683 Y9.280 E129.75689
G1 X-6.527 Y9.043 E129.78313
G1 X-7.616 Y8.648 E129.81781
G1 X-8.515 Y8.249 E129.84725
G1 X-9.406 Y7.787 E129.87729
G1 X-10.014 Y7.427 E129.89845
G1 X-10.863 Y6.884 E129.92861
G1 X-11.424 Y6.448 E129.94988
G1 X-11.927 Y6.042 E129.96923
G1 X-12.176 Y5.825 E129.97912
G1 X-12.322 Y5.613 E129.98682
G1 X-12.279 Y5.492 E129.99067
G1 X-12.612 Y5.083 E130.00645
G1 X-12.957 Y4.762 E130.02056
G1 X-13.208 Y4.646 E130.02884
G1 X-13.510 Y4.406 E130.04039
G1 X-13.805 Y3.985 E130.05577
G1 X-13.951 Y3.784 E130.06321
G1 X-14.281 Y3.163 E130.08426
G1 X-14.340 Y3.034 E130.08851
G1 X-14.495 Y2.479 E130.10576
G1 X-14.549 Y2.282 E130.11187
G1 X-14.624 Y1.546 E130.13402
G1 X-14.549 Y0.807 E130.15625
G1 X-14.342 Y0.062 E130.17940
G1 X-14.078 Y-0.459 E130.19688
G1 X-13.956 Y-0.687 E130.20462
G1 X-13.510 Y-1.316 E130.22770
G1 X-13.211 Y-1.554 E130.23914
G1 X-12.958 Y-1.671 E130.24749
G1 X-12.600 Y-2.004 E130.26212
G1 X-12.280 Y-2.401 E130.27739
G1 X-12.322 Y-2.524 E130.28128
G1 X-12.179 Y-2.731 E130.28881
G1 X-11.428 Y-3.355 E130.31804
G1 X-10.865 Y-3.792 E130.33937
G1 X-10.269 Y-4.185 E130.36074
G1 X-9.396 Y-4.704 E130.39114
G1 X-8.524 Y-5.156 E130.42054
G1 X-7.620 Y-5.559 E130.45017
G1 X-6.714 Y-5.893 E130.47907
G1 X-5.753 Y-6.172 E130.50903
G1 X-4.823 Y-6.403 E130.53771
